;FLAVOR:UltiGCode
;TIME:3327
;MATERIAL:3167
;MATERIAL2:0
;NOZZLE_DIAMETER:0.4
;MINX:97.24
;MINY:97.239
;MINZ:0.27
;MAXX:125.759
;MAXY:125.761
;MAXZ:31.77
;TARGET_MACHINE.NAME:Ultimaker 2+
;Generated with Cura_SteamEngine 5.6.0
M82 ;absolute extrusion mode
G0 F3000 Y50 ;avoid prime blob
G92 E0
G92 E0
G10
;LAYER_COUNT:316
;LAYER:0
M107
G0 F7200 X99.88 Y100.302 Z0.27
;TYPE:SKIRT
G11
G1 F1800 X100.461 Y99.783 E0.08414
G1 X101.003 Y99.391 E0.15638
G1 X102.546 Y98.314 E0.3596
G1 X103.175 Y97.89 E0.44153
G1 X103.73 Y97.586 E0.50987
G1 X104.325 Y97.375 E0.57805
G1 X104.947 Y97.259 E0.64638
G1 X105.532 Y97.239 E0.7096
G1 X107.392 Y97.333 E0.91074
G1 X110.143 Y97.413 E1.20797
G1 X112.814 Y97.415 E1.49644
G1 X115.566 Y97.34 E1.79377
G1 X117.505 Y97.242 E2.00345
G1 X118.073 Y97.263 E2.06483
G1 X118.751 Y97.396 E2.13945
G1 X119.285 Y97.592 E2.20088
G1 X119.847 Y97.901 E2.27015
G1 X120.663 Y98.451 E2.37643
G1 X121.797 Y99.268 E2.52737
G1 X122.664 Y100.11 E2.6579
G1 X123.686 Y101.147 E2.81515
G1 X124.449 Y102.188 E2.95454
G1 X125.094 Y103.132 E3.07802
G1 X125.373 Y103.626 E3.13929
G1 X125.599 Y104.216 E3.20752
G1 X125.736 Y104.905 E3.28339
G1 X125.757 Y105.482 E3.34575
G1 X125.715 Y106.342 E3.43874
G1 X125.605 Y109.133 E3.7404
G1 X125.575 Y111.828 E4.03148
G1 X125.622 Y114.527 E4.32302
G1 X125.759 Y117.537 E4.64843
G1 X125.727 Y118.169 E4.71678
G1 X125.597 Y118.787 E4.78498
G1 X125.397 Y119.32 E4.84647
G1 X125.099 Y119.86 E4.91308
G1 X124.532 Y120.706 E5.02307
G1 X123.654 Y121.958 E5.18822
G1 X123.189 Y122.597 E5.27357
G1 X122.764 Y123.078 E5.34289
G1 X122.224 Y123.52 E5.41826
G1 X119.85 Y125.116 E5.7272
G1 X119.295 Y125.416 E5.79534
G1 X118.701 Y125.626 E5.86338
G1 X118.077 Y125.741 E5.93191
G1 X117.53 Y125.759 E5.99102
G1 X116.561 Y125.711 E6.0958
G1 X113.803 Y125.605 E6.39388
G1 X111.086 Y125.578 E6.68733
G1 X108.426 Y125.628 E6.97466
G1 X106.899 Y125.704 E7.13978
G1 X105.442 Y125.761 E7.29726
G1 X104.872 Y125.734 E7.35889
G1 X104.192 Y125.592 E7.43391
G1 X103.605 Y125.366 E7.50184
G1 X103.088 Y125.076 E7.56586
G1 X102.024 Y124.334 E7.70596
G1 X101.227 Y123.752 E7.81254
G1 X99.947 Y122.5 E8.00592
G1 X99.243 Y121.764 E8.11591
G1 X98.458 Y120.674 E8.26098
G1 X97.897 Y119.845 E8.36909
G1 X97.593 Y119.291 E8.43734
G1 X97.379 Y118.697 E8.50553
G1 X97.262 Y118.073 E8.57409
G1 X97.241 Y117.454 E8.64098
G1 X97.305 Y116.142 E8.78285
G1 X97.4 Y113.419 E9.07711
G1 X97.418 Y110.69 E9.37185
G1 X97.358 Y107.983 E9.66428
G1 X97.24 Y105.539 E9.92854
G1 X97.262 Y104.94 E9.99327
G1 X97.399 Y104.258 E10.0684
G1 X97.623 Y103.669 E10.13646
G1 X97.908 Y103.16 E10.19946
G1 X99.52 Y100.749 E10.51269
G1 X99.88 Y100.302 E10.57467
G0 F7200 X100.147 Y100.6
G1 F1800 X100.696 Y100.107 E10.65436
G1 X101.232 Y99.719 E10.72582
G1 X102.77 Y98.645 E10.92842
G1 X103.37 Y98.239 E11.00666
G1 X103.867 Y97.962 E11.06811
G1 X104.401 Y97.768 E11.12947
G1 X104.961 Y97.659 E11.19108
G1 X105.515 Y97.639 E11.25096
G1 X106.398 Y97.677 E11.34641
G1 X107.38 Y97.733 E11.45264
G1 X110.131 Y97.813 E11.74987
G1 X112.825 Y97.815 E12.04082
G1 X115.577 Y97.74 E12.33815
G1 X117.49 Y97.642 E12.54502
G1 X118.058 Y97.663 E12.60641
G1 X118.616 Y97.773 E12.66783
G1 X119.092 Y97.943 E12.72242
G1 X119.654 Y98.252 E12.79169
G1 X120.43 Y98.776 E12.89281
G1 X121.518 Y99.555 E13.03733
G1 X122.379 Y100.391 E13.16694
G1 X123.401 Y101.428 E13.32418
G1 X124.119 Y102.414 E13.45591
G1 X124.747 Y103.331 E13.57595
G1 X124.999 Y103.769 E13.63052
G1 X125.225 Y104.359 E13.69876
G1 X125.336 Y104.92 E13.76052
G1 X125.357 Y105.497 E13.82288
G1 X125.315 Y106.326 E13.91252
G1 X125.205 Y109.117 E14.21419
G1 X125.175 Y111.824 E14.50656
G1 X125.222 Y114.545 E14.80047
G1 X125.359 Y117.52 E15.12211
G1 X125.335 Y118.089 E15.18362
G1 X125.222 Y118.646 E15.245
G1 X125.022 Y119.179 E15.30648
G1 X124.75 Y119.664 E15.36654
G1 X124.204 Y120.476 E15.47222
G1 X123.33 Y121.723 E15.63668
G1 X122.887 Y122.335 E15.71827
G1 X122.51 Y122.769 E15.78036
G1 X122.001 Y123.188 E15.85156
G1 X119.657 Y124.766 E16.15673
G1 X119.159 Y125.04 E16.21812
G1 X118.625 Y125.233 E16.27944
G1 X118.064 Y125.341 E16.34115
G1 X117.517 Y125.359 E16.40025
G1 X116.576 Y125.311 E16.50201
G1 X113.818 Y125.205 E16.8001
G1 X111.083 Y125.178 E17.09549
G1 X108.406 Y125.228 E17.38466
G1 X106.883 Y125.304 E17.54935
G1 X105.457 Y125.361 E17.70348
G1 X104.951 Y125.342 E17.75816
G1 X104.333 Y125.218 E17.82624
G1 X103.801 Y125.017 E17.88766
G1 X103.284 Y124.727 E17.95168
G1 X102.26 Y124.011 E18.08662
G1 X101.463 Y123.429 E18.19321
G1 X100.235 Y122.223 E18.37909
G1 X99.568 Y121.53 E18.48297
G1 X98.789 Y120.449 E18.62688
G1 X98.246 Y119.65 E18.73121
G1 X97.968 Y119.153 E18.79271
G1 X97.772 Y118.62 E18.85404
G1 X97.662 Y118.059 E18.91579
G1 X97.641 Y117.473 E18.97911
G1 X97.705 Y116.161 E19.12098
G1 X97.8 Y113.433 E19.41578
G1 X97.818 Y110.693 E19.71171
G1 X97.758 Y107.974 E20.00543
G1 X97.64 Y105.554 E20.2671
G1 X97.662 Y104.955 E20.33184
G1 X97.774 Y104.397 E20.3933
G1 X97.972 Y103.864 E20.45471
G1 X98.241 Y103.382 E20.51433
G1 X99.834 Y100.997 E20.82408
G1 X100.147 Y100.6 E20.87868
G0 F7200 X100.461 Y100.848
G1 F1800 X100.931 Y100.431 E20.94654
G1 X101.461 Y100.047 E21.01722
G1 X102.994 Y98.976 E21.21919
G1 X103.568 Y98.587 E21.29407
G1 X104.007 Y98.337 E21.34864
G1 X104.481 Y98.16 E21.40328
G1 X104.976 Y98.059 E21.45784
G1 X105.498 Y98.039 E21.51426
G1 X106.375 Y98.076 E21.60906
G1 X107.368 Y98.133 E21.71648
G1 X110.119 Y98.213 E22.01371
G1 X112.836 Y98.215 E22.30715
G1 X115.588 Y98.139 E22.60448
G1 X117.479 Y98.042 E22.80898
G1 X117.984 Y98.056 E22.86354
G1 X118.481 Y98.15 E22.91816
G1 X118.957 Y98.32 E22.97275
G1 X119.43 Y98.584 E23.03125
G1 X120.198 Y99.102 E23.1313
G1 X121.239 Y99.842 E23.26924
G1 X122.094 Y100.672 E23.39793
G1 X123.116 Y101.709 E23.55518
G1 X123.789 Y102.64 E23.67925
G1 X124.4 Y103.53 E23.79584
G1 X124.652 Y103.968 E23.85041
G1 X124.833 Y104.44 E23.90501
G1 X124.936 Y104.935 E23.95961
G1 X124.957 Y105.512 E24.02197
G1 X124.915 Y106.31 E24.10827
G1 X124.805 Y109.101 E24.40994
G1 X124.775 Y111.82 E24.70361
G1 X124.822 Y114.564 E25
G1 X124.959 Y117.507 E25.31819
G1 X124.942 Y118.013 E25.37287
G1 X124.846 Y118.509 E25.42743
G1 X124.673 Y118.984 E25.48203
G1 X124.418 Y119.441 E25.53855
G1 X123.876 Y120.247 E25.64345
G1 X123.006 Y121.489 E25.80722
G1 X122.582 Y122.076 E25.88542
G1 X122.255 Y122.461 E25.93997
G1 X121.777 Y122.856 E26.00694
G1 X119.461 Y124.417 E26.30858
G1 X119.02 Y124.665 E26.36323
G1 X118.546 Y124.841 E26.41783
G1 X118.051 Y124.941 E26.47237
G1 X117.504 Y124.959 E26.53148
G1 X116.591 Y124.911 E26.63022
G1 X113.833 Y124.805 E26.9283
G1 X111.08 Y124.778 E27.22564
G1 X108.386 Y124.828 E27.51665
G1 X106.867 Y124.904 E27.6809
G1 X105.472 Y124.961 E27.83169
G1 X104.966 Y124.942 E27.88637
G1 X104.471 Y124.843 E27.94089
G1 X103.996 Y124.668 E27.99556
G1 X103.513 Y124.399 E28.05527
G1 X102.494 Y123.687 E28.18953
G1 X101.743 Y123.144 E28.28962
G1 X100.522 Y121.944 E28.47451
G1 X99.893 Y121.296 E28.57204
G1 X99.114 Y120.215 E28.71594
G1 X98.593 Y119.451 E28.81582
G1 X98.342 Y119.012 E28.87043
G1 X98.164 Y118.539 E28.92501
G1 X98.062 Y118.044 E28.9796
G1 X98.041 Y117.492 E29.03925
G1 X98.105 Y116.18 E29.18112
G1 X98.2 Y113.447 E29.47646
G1 X98.218 Y110.696 E29.77358
G1 X98.158 Y107.965 E30.06859
G1 X98.04 Y105.535 E30.33134
G1 X98.055 Y105.03 E30.38591
G1 X98.15 Y104.533 E30.44056
G1 X98.322 Y104.058 E30.49512
G1 X98.574 Y103.604 E30.55119
G1 X100.148 Y101.245 E30.85747
G1 X100.461 Y100.848 E30.91207
G10
G0 F7200 X103.084 Y103.062
G11
G1 F1800 X105.378 Y101.459 E31.21432
G1 X108.431 Y103.012 E31.58425
G1 X108.427 Y103.201 E31.60467
G1 X107.092 Y103.823 E31.76373
G1 X107.061 Y103.84 E31.76755
G1 X105.82 Y104.708 E31.9311
G1 X105.794 Y104.731 E31.93485
G1 X104.732 Y105.794 E32.09713
G1 X104.709 Y105.82 E32.10088
G1 X103.839 Y107.061 E32.26457
G1 X103.822 Y107.092 E32.26838
G1 X103.188 Y108.453 E32.43054
G1 X102.996 Y108.453 E32.45127
G1 X102.573 Y107.536 E32.56034
G1 X102.569 Y107.528 E32.5613
G1 X101.459 Y105.376 E32.82282
G1 X102.477 Y103.919 E33.01478
G1 X103.065 Y103.26 E33.11016
G1 X103.115 Y103.146 E33.12361
G1 X103.084 Y103.062 E33.13328
G0 F7200 X103.49 Y103.266
G1 F1800 X105.41 Y101.924 E33.38627
G1 X107.709 Y103.094 E33.66486
G1 X106.923 Y103.46 E33.7585
G1 X106.832 Y103.512 E33.76982
G1 X105.591 Y104.38 E33.93338
G1 X105.511 Y104.448 E33.94472
G1 X104.449 Y105.511 E34.107
G1 X104.382 Y105.591 E34.11827
G1 X103.512 Y106.832 E34.28195
G1 X103.459 Y106.923 E34.29333
G1 X103.093 Y107.708 E34.38687
G1 X102.936 Y107.368 E34.42731
G1 X102.924 Y107.345 E34.43012
G1 X101.925 Y105.407 E34.66559
G1 X102.791 Y104.169 E34.82876
G1 X103.364 Y103.526 E34.92178
G1 X103.477 Y103.34 E34.94528
G1 X103.49 Y103.266 E34.9534
G0 F7200 X103.832 Y103.515
G1 F1800 X105.443 Y102.39 E35.16561
G1 X106.796 Y103.078 E35.32954
G1 X106.754 Y103.098 E35.33456
G1 X106.603 Y103.185 E35.35339
G1 X105.362 Y104.053 E35.51694
G1 X105.228 Y104.165 E35.53581
G1 X104.166 Y105.228 E35.69809
G1 X104.054 Y105.361 E35.71687
G1 X103.184 Y106.602 E35.88055
G1 X103.097 Y106.754 E35.89946
G1 X103.084 Y106.782 E35.9028
G1 X102.392 Y105.439 E36.06596
G1 X103.108 Y104.414 E36.201
G1 X103.662 Y103.792 E36.29095
G1 X103.819 Y103.557 E36.32148
G1 X103.832 Y103.515 E36.32623
G10
G0 F7200 X111.5 Y102.85
G0 X114.554 Y103.192
G11
G1 F1800 X114.554 Y103 E36.34696
G1 X115.128 Y102.738 E36.41511
G1 X115.136 Y102.734 E36.41607
G1 X117.636 Y101.46 E36.71911
G1 X119.091 Y102.476 E36.91077
G1 X120.534 Y103.92 E37.13124
G1 X121.54 Y105.356 E37.3206
G1 X119.995 Y108.447 E37.69381
G1 X119.806 Y108.445 E37.71422
G1 X119.176 Y107.091 E37.87551
G1 X119.159 Y107.06 E37.87933
G1 X118.29 Y105.821 E38.04277
G1 X118.267 Y105.795 E38.04652
G1 X117.204 Y104.731 E38.20895
G1 X117.178 Y104.708 E38.2127
G1 X115.939 Y103.839 E38.37614
G1 X115.908 Y103.822 E38.37996
G1 X114.554 Y103.192 E38.54125
G0 F7200 X115.302 Y103.098
G1 F1800 X115.317 Y103.091 E38.54304
G1 X117.604 Y101.925 E38.82028
G1 X118.832 Y102.783 E38.98207
G1 X120.23 Y104.182 E39.19567
G1 X121.076 Y105.389 E39.35486
G1 X119.911 Y107.721 E39.63639
G1 X119.539 Y106.922 E39.73158
G1 X119.486 Y106.83 E39.74305
G1 X118.617 Y105.591 E39.90649
G1 X118.55 Y105.512 E39.91768
G1 X117.487 Y104.448 E40.08011
G1 X117.408 Y104.381 E40.0913
G1 X116.169 Y103.512 E40.25474
G1 X116.077 Y103.459 E40.26621
G1 X115.302 Y103.098 E40.35855
G0 F7200 X116.216 Y103.082
G1 F1800 X117.572 Y102.391 E40.52291
G1 X118.573 Y103.09 E40.65477
G1 X119.921 Y104.439 E40.86073
G1 X120.611 Y105.424 E40.99062
G1 X119.924 Y106.799 E41.15662
G1 X119.902 Y106.753 E41.16213
G1 X119.814 Y106.601 E41.1811
G1 X118.945 Y105.362 E41.34454
G1 X118.833 Y105.229 E41.36332
G1 X117.77 Y104.165 E41.52575
G1 X117.637 Y104.053 E41.54453
G1 X116.398 Y103.184 E41.70797
G1 X116.246 Y103.096 E41.72694
G1 X116.216 Y103.082 E41.73052
G10
G0 F7200 X118.99 Y107.176
G0 X119.628 Y108.544
G0 X120.017 Y109.997
G0 X120.149 Y111.5
G0 X119.809 Y114.549
G11
G1 F1800 X120.001 Y114.549 E41.75125
G1 X120.473 Y115.57 E41.87274
G1 X120.477 Y115.577 E41.87361
G1 X121.54 Y117.653 E42.1255
G1 X119.951 Y119.924 E42.42484
G1 X119.922 Y119.909 E42.42837
G1 X119.761 Y119.956 E42.44648
G1 X119.095 Y120.531 E42.54151
G1 X117.655 Y121.543 E42.73159
G1 X114.461 Y120.043 E43.11269
G1 X114.48 Y119.834 E43.13536
G1 X114.924 Y119.715 E43.185
G1 X115.028 Y119.647 E43.19842
G1 X115.063 Y119.58 E43.20658
G1 X115.066 Y119.569 E43.20782
G1 X115.908 Y119.177 E43.30812
G1 X115.939 Y119.16 E43.31194
G1 X117.182 Y118.289 E43.47586
G1 X117.208 Y118.266 E43.47961
G1 X118.266 Y117.208 E43.64121
G1 X118.289 Y117.182 E43.64496
G1 X119.16 Y115.939 E43.80888
G1 X119.177 Y115.908 E43.81269
G1 X119.809 Y114.549 E43.97456
G0 F7200 X119.904 Y115.294
G1 F1800 X120.11 Y115.738 E44.02742
G1 X120.121 Y115.759 E44.02998
G1 X121.074 Y117.621 E44.25589
G1 X119.737 Y119.532 E44.50777
G1 X119.708 Y119.536 E44.51094
G1 X119.5 Y119.653 E44.53671
G1 X118.848 Y120.216 E44.62974
G1 X117.615 Y121.082 E44.79247
G1 X115.256 Y119.975 E45.0739
G1 X115.346 Y119.881 E45.08796
G1 X116.077 Y119.54 E45.17507
G1 X116.168 Y119.487 E45.18644
G1 X117.411 Y118.616 E45.35037
G1 X117.491 Y118.549 E45.36164
G1 X118.549 Y117.491 E45.52323
G1 X118.616 Y117.411 E45.5345
G1 X119.487 Y116.168 E45.69842
G1 X119.54 Y116.077 E45.70979
G1 X119.904 Y115.294 E45.80305
G0 F7200 X119.911 Y116.228
G1 F1800 X120.609 Y117.59 E45.96834
G1 X119.473 Y119.213 E46.18229
G1 X119.239 Y119.35 E46.21158
G1 X118.601 Y119.901 E46.30262
G1 X117.575 Y120.621 E46.43799
G1 X116.144 Y119.95 E46.60869
G1 X116.246 Y119.902 E46.62086
G1 X116.398 Y119.815 E46.63978
G1 X117.641 Y118.944 E46.8037
G1 X117.774 Y118.832 E46.82248
G1 X118.832 Y117.774 E46.98407
G1 X118.944 Y117.641 E47.00285
G1 X119.815 Y116.398 E47.16677
G1 X119.903 Y116.246 E47.18574
G1 X119.911 Y116.228 E47.18787
G10
G0 F7200 X115.823 Y118.99
G0 X114.864 Y119.514
G0 X113.003 Y120.017
G0 X111.5 Y120.149
G0 X108.447 Y119.808
G11
G1 F1800 X108.443 Y120.004 E47.20904
G1 X108.146 Y120.129 E47.24384
G1 X108.137 Y120.133 E47.2449
G1 X107.005 Y120.682 E47.38078
G1 X107 Y120.685 E47.38141
G1 X105.354 Y121.541 E47.58178
G1 X103.92 Y120.534 E47.77102
G1 X102.471 Y119.086 E47.99226
G1 X101.461 Y117.637 E48.18301
G1 X103.021 Y114.588 E48.5529
G1 X103.209 Y114.592 E48.57321
G1 X103.823 Y115.909 E48.73015
G1 X103.84 Y115.94 E48.73397
G1 X104.709 Y117.179 E48.89741
G1 X104.732 Y117.205 E48.90116
G1 X105.794 Y118.268 E49.06344
G1 X105.82 Y118.291 E49.06719
G1 X107.061 Y119.16 E49.23081
G1 X107.092 Y119.177 E49.23463
G1 X108.447 Y119.808 E49.39606
G0 F7200 X107.698 Y119.901
G1 F1800 X106.83 Y120.322 E49.50025
G1 X106.815 Y120.33 E49.50208
G1 X105.385 Y121.074 E49.67617
G1 X104.18 Y120.228 E49.83519
G1 X102.778 Y118.827 E50.04924
G1 X101.926 Y117.605 E50.21013
G1 X103.101 Y115.309 E50.48868
G1 X103.46 Y116.078 E50.58034
G1 X103.513 Y116.17 E50.59181
G1 X104.382 Y117.409 E50.75525
G1 X104.449 Y117.488 E50.76644
G1 X105.511 Y118.551 E50.92872
G1 X105.591 Y118.618 E50.93999
G1 X106.832 Y119.487 E51.10361
G1 X106.923 Y119.54 E51.11498
G1 X107.698 Y119.901 E51.20732
G0 F7200 X106.766 Y119.909
G1 F1800 X106.656 Y119.962 E51.2205
G1 X106.631 Y119.975 E51.22355
G1 X105.416 Y120.607 E51.37146
G1 X104.439 Y119.921 E51.50039
G1 X103.085 Y118.568 E51.70711
G1 X102.392 Y117.574 E51.83798
G1 X103.085 Y116.219 E52.00235
G1 X103.098 Y116.247 E52.00568
G1 X103.185 Y116.399 E52.0246
G1 X104.054 Y117.638 E52.18804
G1 X104.166 Y117.771 E52.20682
G1 X105.228 Y118.834 E52.3691
G1 X105.361 Y118.946 E52.38788
G1 X106.602 Y119.815 E52.5515
G1 X106.754 Y119.903 E52.57047
G1 X106.766 Y119.909 E52.57192
G0 F7200 X105.914 Y119.86
;TYPE:SUPPORT
G1 F1530.6 X105.015 Y119.232 E52.70901
G1 X103.772 Y117.988 E52.92885
G1 F1534.3 X103.132 Y117.073 E53.06813
G1 F1538 X102.894 Y117.538 E53.13315
G1 F1534.3 X103.418 Y118.288 E53.24728
G1 F1530.6 X104.721 Y119.59 E53.47755
G1 X105.449 Y120.102 E53.58881
G1 X105.914 Y119.86 E53.65434
G10
G0 F7200 X111.5 Y120.149
G0 X117.043 Y119.892
G11
G1 F1519.6 X117.529 Y120.122 E53.72199
G1 F1512.3 X118.332 Y119.555 E53.8462
G1 F1429.8 X119.242 Y118.742 E54.00831
G1 F1436.3 X119.621 Y118.242 E54.09131
G1 F1519.6 X120.103 Y117.554 E54.19701
G1 X119.863 Y117.085 E54.26329
G1 F1512.3 X119.215 Y118.006 E54.40559
G1 F1429.8 X118.868 Y118.386 E54.47395
G1 X118.02 Y119.203 E54.63037
G1 F1512.3 X117.043 Y119.892 E54.78144
G10
G0 F7200 X119.628 Y114.455
G0 X120.017 Y113.002
G0 X120.124 Y111.785
G0 X119.874 Y105.933
G11
G1 F1526.9 X120.109 Y105.461 E54.84749
G1 X119.586 Y104.717 E54.96143
G1 F1530.6 X118.293 Y103.423 E55.19011
G1 F1534.3 X117.536 Y102.891 E55.30552
G1 F1538 X117.071 Y103.129 E55.37054
G1 F1534.3 X117.991 Y103.775 E55.51077
G1 F1530.6 X119.229 Y105.015 E55.72981
G1 F1526.9 X119.874 Y105.933 E55.87037
G10
G0 F7200 X114.455 Y103.371
G0 X113.003 Y102.982
G0 X111.785 Y102.875
G0 X105.942 Y103.124
G11
G1 F1545.5 X105.479 Y102.888 E55.93477
G1 F1512.3 X104.398 Y103.648 E56.10175
G1 F1505.1 X103.44 Y104.691 E56.28146
G1 F1541.7 X102.893 Y105.473 E56.39999
G1 F1549.3 X103.13 Y105.932 E56.46387
G1 F1541.7 X103.785 Y104.998 E56.60555
G1 X104.898 Y103.853 E56.80388
