;FLAVOR:UltiGCode
;TIME:13443
;MATERIAL:14476
;MATERIAL2:0
;NOZZLE_DIAMETER:0.4
;MINX:65.666
;MINY:88.57
;MINZ:0.27
;MAXX:155.74
;MAXY:134.558
;MAXZ:20.87
;TARGET_MACHINE.NAME:Ultimaker 2+
;Generated with Cura_SteamEngine 5.6.0
M82 ;absolute extrusion mode
G0 F3000 Y50 ;avoid prime blob
G92 E0
G92 E0
G10
;LAYER_COUNT:207
;LAYER:0
M107
G0 F7200 X69.934 Y93.048 Z0.27
;TYPE:SKIRT
G11
G1 F1800 X73.677 Y91.302 E0.44606
G1 X74.179 Y90.831 E0.52041
G1 X75.975 Y90.147 E0.72796
G1 X77.055 Y89.429 E0.86803
G1 X80.399 Y88.836 E1.23481
G1 X83.052 Y89.215 E1.52425
G1 X84.219 Y89.982 E1.67507
G1 X84.497 Y89.8 E1.71095
G1 X87.285 Y88.898 E2.02742
G1 X91.927 Y88.898 E2.52876
G1 X94.508 Y89.775 E2.82316
G1 X94.701 Y89.66 E2.84742
G1 X97.484 Y88.759 E3.16335
G1 X108.144 Y88.758 E4.31463
G1 X108.671 Y88.688 E4.37204
G1 X115.651 Y88.66 E5.12589
G1 X116.256 Y88.593 E5.19163
G1 X118.713 Y88.57 E5.457
G1 X119.252 Y88.609 E5.51536
G1 X120.449 Y88.652 E5.64472
G1 X124.021 Y88.659 E6.0305
G1 X126.55 Y89.499 E6.3183
G1 X126.908 Y89.766 E6.36653
G1 X129.588 Y88.898 E6.67078
G1 X134.203 Y88.898 E7.1692
G1 X136.664 Y89.739 E7.45008
G1 X139.539 Y88.66 E7.78172
G1 X143.835 Y88.657 E8.24569
G1 X146.323 Y89.222 E8.52124
G1 X148.818 Y90.966 E8.85
G1 X150.191 Y91.966 E9.03344
G1 X150.957 Y92.798 E9.15558
G1 X151.103 Y92.944 E9.17788
G1 X152.077 Y94.051 E9.33713
G1 X153.437 Y95.845 E9.58026
G1 X154.513 Y98.119 E9.85196
G1 X155.167 Y99.976 E10.06459
G1 X155.665 Y102.028 E10.29264
G1 X155.659 Y104.52 E10.56178
G1 X155.74 Y105.332 E10.64991
G1 X155.694 Y120.414 E12.27877
G1 X155.549 Y121.513 E12.39849
G1 X155.143 Y123.264 E12.59262
G1 X154.328 Y125.44 E12.84357
G1 X153.349 Y127.419 E13.08202
G1 X151.314 Y130.108 E13.44622
G1 X150.313 Y130.956 E13.58791
G1 X149.834 Y131.396 E13.65815
G1 X148.635 Y132.329 E13.82223
G1 X146.441 Y133.716 E14.10256
G1 X144.132 Y134.45 E14.36423
G1 X139.502 Y134.449 E14.86427
G1 X136.951 Y133.61 E15.1543
G1 X136.586 Y133.341 E15.20327
G1 X133.9 Y134.21 E15.50816
G1 X129.677 Y134.21 E15.96424
G1 X127.747 Y133.79 E16.17756
G1 X126.978 Y133.32 E16.2749
G1 X123.953 Y134.45 E16.62365
G1 X119.537 Y134.447 E17.10057
G1 X118.939 Y134.558 E17.16626
G1 X116.036 Y134.478 E17.4799
G1 X115.845 Y134.45 E17.50075
G1 X97.229 Y134.469 E19.51128
G1 X94.692 Y133.637 E19.79964
G1 X94.301 Y133.344 E19.8524
G1 X91.625 Y134.21 E20.15617
G1 X87.374 Y134.21 E20.61528
G1 X85.446 Y133.79 E20.82838
G1 X84.194 Y133.026 E20.98679
G1 X82.77 Y133.891 E21.16673
G1 X79.947 Y134.105 E21.47249
G1 X77.606 Y133.696 E21.72915
G1 X76.396 Y133.078 E21.87588
G1 X75.215 Y132.576 E22.01448
G1 X74.366 Y131.99 E22.12589
G1 X73.901 Y131.845 E22.17849
G1 X70.469 Y130.247 E22.58736
G1 X68.211 Y127.831 E22.94451
G1 X67.223 Y125.734 E23.19486
G1 X67.232 Y116.998 E24.13835
G1 X66.15 Y114.566 E24.42583
G1 X65.666 Y112.109 E24.69628
G1 X65.732 Y108.859 E25.04735
G1 X66.428 Y106.543 E25.30853
G1 X67.237 Y104.623 E25.53355
G1 X67.248 Y97.892 E26.2605
G1 X68.45 Y94.846 E26.61415
G1 X69.934 Y93.048 E26.86594
G0 F7200 X70.187 Y93.371
G1 F1800 X73.904 Y91.637 E27.3089
G1 X74.394 Y91.178 E27.38142
G1 X76.159 Y90.505 E27.58542
G1 X77.207 Y89.808 E27.72135
G1 X80.406 Y89.241 E28.07223
G1 X82.907 Y89.598 E28.34508
G1 X84.234 Y90.471 E28.51663
G1 X84.62 Y90.181 E28.56877
G1 X87.349 Y89.298 E28.87854
G1 X91.86 Y89.298 E29.36573
G1 X94.325 Y90.136 E29.64691
G1 X94.516 Y90.262 E29.67163
G1 X94.824 Y90.041 E29.71257
G1 X97.548 Y89.159 E30.0218
G1 X108.17 Y89.158 E31.16897
G1 X108.673 Y89.088 E31.22382
G1 X115.678 Y89.06 E31.98037
G1 X116.3 Y88.991 E32.04795
G1 X118.716 Y88.97 E32.30889
G1 X119.233 Y89.009 E32.36489
G1 X120.435 Y89.052 E32.49479
G1 X123.955 Y89.059 E32.87495
G1 X126.424 Y89.879 E33.15592
G1 X126.854 Y90.245 E33.21691
G1 X127.012 Y90.153 E33.23665
G1 X129.652 Y89.298 E33.53635
G1 X134.135 Y89.298 E34.02052
G1 X136.509 Y90.105 E34.29132
G1 X136.686 Y90.214 E34.31377
G1 X136.875 Y90.087 E34.33836
G1 X139.611 Y89.06 E34.65398
G1 X143.791 Y89.057 E35.10542
G1 X146.158 Y89.594 E35.36755
G1 X148.583 Y91.289 E35.68709
G1 X149.922 Y92.264 E35.86597
G1 X150.674 Y93.081 E35.9859
G1 X150.82 Y93.227 E36.0082
G1 X151.758 Y94.293 E36.16155
G1 X153.093 Y96.054 E36.40021
G1 X154.151 Y98.29 E36.66737
G1 X154.778 Y100.07 E36.87118
G1 X155.265 Y102.076 E37.09412
G1 X155.259 Y104.541 E37.36035
G1 X155.34 Y105.331 E37.44611
G1 X155.294 Y120.413 E39.07498
G1 X155.159 Y121.423 E39.18503
G1 X154.753 Y123.174 E39.37915
G1 X153.969 Y125.263 E39.62013
G1 X153.006 Y127.21 E39.85472
G1 X151.021 Y129.833 E40.20998
G1 X150.042 Y130.662 E40.34852
G1 X149.588 Y131.08 E40.41517
G1 X148.389 Y132.013 E40.57925
G1 X146.27 Y133.351 E40.84991
G1 X144.071 Y134.05 E41.09911
G1 X139.566 Y134.049 E41.58565
G1 X137.076 Y133.23 E41.86874
G1 X136.638 Y132.861 E41.9306
G1 X136.474 Y132.956 E41.95107
G1 X133.836 Y133.81 E42.25053
G1 X129.721 Y133.81 E42.69495
G1 X127.898 Y133.413 E42.89645
G1 X126.924 Y132.819 E43.01966
G1 X126.67 Y133.008 E43.05385
G1 X123.88 Y134.05 E43.3755
G1 X119.502 Y134.047 E43.84832
G1 X118.91 Y134.157 E43.91335
G1 X116.094 Y134.082 E44.21759
G1 X115.876 Y134.05 E44.24138
G1 X97.293 Y134.069 E46.24835
G1 X94.817 Y133.257 E46.52977
G1 X94.357 Y132.866 E46.59497
G1 X94.199 Y132.956 E46.61461
G1 X91.561 Y133.81 E46.91407
G1 X87.418 Y133.81 E47.36152
G1 X85.595 Y133.413 E47.56301
G1 X84.194 Y132.558 E47.74027
G1 X82.644 Y133.499 E47.93611
G1 X79.966 Y133.702 E48.22616
G1 X77.734 Y133.312 E48.47087
G1 X76.567 Y132.716 E48.61239
G1 X75.409 Y132.224 E48.74827
G1 X74.54 Y131.625 E48.86226
G1 X74.07 Y131.482 E48.91532
G1 X70.707 Y129.916 E49.31597
G1 X68.546 Y127.604 E49.65776
G1 X67.623 Y125.645 E49.89164
G1 X67.632 Y116.914 E50.83459
G1 X66.533 Y114.444 E51.12656
G1 X66.067 Y112.077 E51.3871
G1 X66.131 Y108.921 E51.72802
G1 X66.797 Y106.698 E51.97865
G1 X67.637 Y104.705 E52.21223
G1 X67.648 Y97.968 E52.93983
G1 X68.798 Y95.054 E53.27816
G1 X70.187 Y93.371 E53.51383
G0 F7200 X70.437 Y93.696
G1 F1800 X74.131 Y91.973 E53.95405
G1 X74.61 Y91.524 E54.02495
G1 X76.34 Y90.864 E54.22493
G1 X77.358 Y90.188 E54.35691
G1 X80.414 Y89.646 E54.6921
G1 X82.762 Y89.981 E54.94826
G1 X84.265 Y90.971 E55.14263
G1 X84.743 Y90.562 E55.21057
G1 X87.413 Y89.698 E55.51365
G1 X91.793 Y89.698 E55.98669
G1 X94.196 Y90.515 E56.26081
G1 X94.517 Y90.783 E56.30597
G1 X94.947 Y90.422 E56.36661
G1 X97.612 Y89.559 E56.66914
G1 X108.202 Y89.558 E57.81286
G1 X108.675 Y89.488 E57.8645
G1 X115.705 Y89.46 E58.62375
G1 X116.344 Y89.389 E58.69318
G1 X118.719 Y89.37 E58.94969
G1 X119.209 Y89.409 E59.00278
G1 X120.421 Y89.452 E59.13376
G1 X123.889 Y89.459 E59.5083
G1 X126.298 Y90.259 E59.78245
G1 X126.815 Y90.767 E59.86073
G1 X127.135 Y90.534 E59.90348
G1 X129.716 Y89.698 E60.19648
G1 X134.068 Y89.698 E60.6665
G1 X136.38 Y90.484 E60.93023
G1 X136.694 Y90.721 E60.97272
G1 X137.016 Y90.461 E61.01741
G1 X139.683 Y89.46 E61.32507
G1 X143.746 Y89.457 E61.76387
G1 X145.993 Y89.967 E62.01272
G1 X148.348 Y91.612 E62.32297
G1 X149.653 Y92.562 E62.4973
G1 X150.391 Y93.364 E62.615
G1 X150.537 Y93.51 E62.6373
G1 X151.439 Y94.535 E62.78476
G1 X152.749 Y96.263 E63.01895
G1 X153.789 Y98.461 E63.28157
G1 X154.389 Y100.164 E63.47657
G1 X154.865 Y102.124 E63.69441
G1 X154.859 Y104.564 E63.95793
G1 X154.94 Y105.33 E64.04112
G1 X154.897 Y120.361 E65.66447
G1 X154.769 Y121.333 E65.77035
G1 X154.363 Y123.084 E65.96448
G1 X153.61 Y125.086 E66.19548
G1 X152.663 Y127.001 E66.42621
G1 X150.73 Y129.555 E66.77214
G1 X149.77 Y130.368 E66.908
G1 X149.342 Y130.764 E66.97098
G1 X148.143 Y131.697 E67.13505
G1 X146.101 Y132.985 E67.3958
G1 X144.01 Y133.65 E67.63277
G1 X139.63 Y133.649 E68.10581
G1 X137.201 Y132.85 E68.38197
G1 X136.675 Y132.339 E68.46117
G1 X136.351 Y132.575 E68.50446
G1 X133.772 Y133.41 E68.79723
G1 X129.765 Y133.41 E69.22998
G1 X128.047 Y133.036 E69.41987
G1 X126.88 Y132.324 E69.56752
G1 X126.53 Y132.633 E69.61794
G1 X123.807 Y133.65 E69.93186
G1 X119.467 Y133.647 E70.40058
G1 X118.88 Y133.756 E70.46506
G1 X116.152 Y133.686 E70.75979
G1 X115.907 Y133.65 E70.78653
G1 X97.357 Y133.669 E72.78993
G1 X94.942 Y132.877 E73.06442
G1 X94.394 Y132.344 E73.14698
G1 X94.076 Y132.575 E73.18943
G1 X91.497 Y133.41 E73.4822
G1 X87.462 Y133.41 E73.91798
G1 X85.744 Y133.036 E74.10786
G1 X84.194 Y132.09 E74.30398
G1 X82.518 Y133.107 E74.51571
G1 X79.985 Y133.299 E74.79005
G1 X77.862 Y132.928 E75.02281
G1 X76.738 Y132.354 E75.15912
G1 X75.603 Y131.872 E75.29229
G1 X74.713 Y131.259 E75.40901
G1 X74.239 Y131.119 E75.46239
G1 X70.945 Y129.585 E75.85482
G1 X68.881 Y127.377 E76.18125
G1 X68.023 Y125.556 E76.39865
G1 X68.032 Y116.83 E77.34106
G1 X66.916 Y114.322 E77.63753
G1 X66.468 Y112.045 E77.88816
G1 X66.53 Y108.982 E78.21903
G1 X67.166 Y106.853 E78.45901
G1 X68.037 Y104.787 E78.70115
G1 X68.048 Y98.044 E79.4294
G1 X69.147 Y95.259 E79.75275
G1 X70.437 Y93.696 E79.97162
G0 F7200 X70.688 Y94.02
G1 F1800 X74.36 Y92.307 E80.40923
G1 X74.827 Y91.869 E80.47838
G1 X76.523 Y91.223 E80.67438
G1 X77.509 Y90.568 E80.80222
G1 X80.422 Y90.051 E81.12175
G1 X82.617 Y90.364 E81.3612
G1 X84.314 Y91.482 E81.58068
G1 X84.866 Y90.943 E81.664
G1 X87.477 Y90.098 E81.96039
G1 X91.726 Y90.098 E82.41928
G1 X94.067 Y90.894 E82.68632
G1 X94.508 Y91.348 E82.75468
G1 X95.07 Y90.803 E82.83923
G1 X97.676 Y89.959 E83.13507
G1 X108.234 Y89.958 E84.27533
G1 X108.734 Y89.884 E84.32992
G1 X115.732 Y89.86 E85.08571
G1 X116.388 Y89.787 E85.157
G1 X118.722 Y89.77 E85.40907
G1 X119.181 Y89.809 E85.45883
G1 X120.407 Y89.852 E85.59131
G1 X123.823 Y89.859 E85.96024
G1 X126.085 Y90.61 E86.21765
G1 X126.795 Y91.307 E86.32511
G1 X127.258 Y90.915 E86.39062
G1 X129.78 Y90.098 E86.67694
G1 X134.001 Y90.098 E87.1328
G1 X136.251 Y90.863 E87.38947
G1 X136.7 Y91.262 E87.45434
G1 X137.157 Y90.835 E87.52189
G1 X139.755 Y89.86 E87.82158
G1 X143.701 Y89.857 E88.24775
G1 X145.828 Y90.34 E88.48331
G1 X148.113 Y91.935 E88.78427
G1 X149.384 Y92.86 E88.95404
G1 X150.108 Y93.647 E89.06953
G1 X150.254 Y93.793 E89.09183
G1 X151.12 Y94.777 E89.2334
G1 X152.405 Y96.472 E89.46311
G1 X153.427 Y98.632 E89.72119
G1 X154 Y100.258 E89.90738
G1 X154.465 Y102.172 E90.12011
G1 X154.459 Y104.589 E90.38114
G1 X154.54 Y105.329 E90.46154
G1 X154.497 Y120.36 E92.0849
G1 X154.379 Y121.243 E92.18111
G1 X153.988 Y122.944 E92.36961
G1 X153.251 Y124.909 E92.59626
G1 X152.32 Y126.792 E92.82312
G1 X150.439 Y129.277 E93.15972
G1 X149.511 Y130.063 E93.29106
G1 X149.096 Y130.448 E93.3522
G1 X147.897 Y131.381 E93.51628
G1 X145.932 Y132.619 E93.7671
G1 X143.949 Y133.25 E93.99185
G1 X139.694 Y133.249 E94.45139
G1 X137.414 Y132.499 E94.71061
G1 X136.694 Y131.799 E94.81906
G1 X136.228 Y132.194 E94.88504
G1 X133.708 Y133.01 E95.17111
G1 X129.809 Y133.01 E95.5922
G1 X128.196 Y132.659 E95.77048
G1 X126.812 Y131.814 E95.94561
G1 X126.39 Y132.258 E96.01177
G1 X123.734 Y133.25 E96.31797
G1 X119.432 Y133.247 E96.78259
G1 X118.85 Y133.355 E96.84652
G1 X116.21 Y133.29 E97.13172
G1 X115.937 Y133.25 E97.16152
G1 X97.421 Y133.269 E99.16125
G1 X95.155 Y132.526 E99.4188
G1 X94.413 Y131.805 E99.53054
G1 X93.953 Y132.194 E99.5956
G1 X91.433 Y133.01 E99.88167
G1 X87.506 Y133.01 E100.30579
G1 X85.893 Y132.659 E100.48407
G1 X84.48 Y131.797 E100.66283
G1 X84.25 Y131.587 E100.69646
G1 X82.392 Y132.715 E100.93121
G1 X80.004 Y132.896 E101.18986
G1 X77.99 Y132.544 E101.41067
G1 X76.904 Y131.99 E101.54233
G1 X75.799 Y131.52 E101.67202
G1 X74.889 Y130.894 E101.79131
G1 X74.408 Y130.756 E101.84535
G1 X71.183 Y129.254 E102.22957
G1 X69.216 Y127.15 E102.54064
G1 X68.423 Y125.467 E102.74157
G1 X68.432 Y116.792 E103.67847
G1 X68.228 Y116.287 E103.7373
G1 X67.299 Y114.197 E103.98431
G1 X66.869 Y112.013 E104.22471
G1 X66.929 Y109.043 E104.54554
G1 X67.535 Y107.008 E104.77485
G1 X68.437 Y104.869 E105.02557
G1 X68.448 Y98.12 E105.75446
G1 X69.496 Y95.464 E106.06283
G1 X70.688 Y94.02 E106.26505
G0 F7200 X70.94 Y94.344
G1 F1800 X74.587 Y92.643 E106.69966
G1 X75.044 Y92.214 E106.76736
G1 X76.708 Y91.581 E106.95963
G1 X77.661 Y90.947 E107.08325
G1 X80.43 Y90.456 E107.38697
G1 X82.472 Y90.747 E107.60973
G1 X84.363 Y91.994 E107.85437
G1 X85.078 Y91.295 E107.96236
G1 X87.541 Y90.498 E108.24194
G1 X91.659 Y90.498 E108.68669
G1 X93.847 Y91.242 E108.93628
G1 X94.499 Y91.913 E109.03733
G1 X95.28 Y91.156 E109.15479
G1 X97.74 Y90.359 E109.43407
G1 X108.266 Y90.358 E110.57088
G1 X108.793 Y90.28 E110.62841
G1 X115.759 Y90.26 E111.38074
G1 X116.432 Y90.185 E111.45388
G1 X118.725 Y90.17 E111.70153
G1 X119.167 Y90.209 E111.74945
G1 X120.393 Y90.252 E111.88194
G1 X123.757 Y90.259 E112.24525
G1 X125.871 Y90.961 E112.48582
G1 X126.794 Y91.866 E112.62543
G1 X127.381 Y91.296 E112.7138
G1 X129.844 Y90.498 E112.99341
G1 X133.934 Y90.498 E113.43513
G1 X136.122 Y91.242 E113.68472
G1 X136.704 Y91.841 E113.77492
G1 X137.298 Y91.21 E113.86852
G1 X139.83 Y90.26 E114.16059
G1 X143.657 Y90.257 E114.5739
G1 X145.663 Y90.712 E114.79605
G1 X147.878 Y92.258 E115.08778
G1 X149.115 Y93.158 E115.25299
G1 X149.825 Y93.93 E115.36627
G1 X149.971 Y94.076 E115.38857
G1 X150.801 Y95.019 E115.52424
G1 X152.061 Y96.681 E115.74949
G1 X153.065 Y98.803 E116.00303
G1 X153.611 Y100.352 E116.18041
G1 X154.065 Y102.22 E116.38802
G1 X154.059 Y104.607 E116.64582
G1 X154.14 Y105.328 E116.72418
G1 X154.1 Y120.308 E118.34202
G1 X153.989 Y121.153 E118.43407
G1 X153.598 Y122.854 E118.62257
G1 X152.892 Y124.732 E118.83925
G1 X151.977 Y126.583 E119.06225
G1 X150.146 Y129.002 E119.3899
G1 X149.239 Y129.77 E119.51826
G1 X148.85 Y130.132 E119.57565
G1 X147.651 Y131.065 E119.73972
G1 X145.76 Y132.254 E119.98097
G1 X143.888 Y132.85 E120.19314
G1 X139.758 Y132.849 E120.63918
G1 X137.627 Y132.148 E120.88146
G1 X136.695 Y131.241 E121.02192
G1 X136.105 Y131.813 E121.11067
G1 X133.644 Y132.61 E121.39004
G1 X129.853 Y132.61 E121.79947
G1 X128.345 Y132.282 E121.96614
G1 X126.997 Y131.459 E122.13672
G1 X126.786 Y131.261 E122.16797
G1 X126.165 Y131.915 E122.26537
G1 X123.661 Y132.85 E122.55404
G1 X119.397 Y132.847 E123.01455
G1 X118.82 Y132.954 E123.07793
G1 X116.268 Y132.894 E123.35362
G1 X115.968 Y132.85 E123.38637
G1 X97.485 Y132.869 E125.38253
G1 X95.368 Y132.175 E125.62314
G1 X94.413 Y131.247 E125.76696
G1 X93.83 Y131.813 E125.85471
G1 X91.369 Y132.61 E126.13409
G1 X87.55 Y132.61 E126.54654
G1 X86.042 Y132.282 E126.71321
G1 X84.688 Y131.456 E126.88451
G1 X84.309 Y131.083 E126.94194
G1 X82.266 Y132.323 E127.20004
G1 X80.023 Y132.493 E127.44298
G1 X78.118 Y132.16 E127.65184
G1 X77.075 Y131.628 E127.77829
G1 X75.996 Y131.17 E127.90489
G1 X75.063 Y130.528 E128.0272
G1 X74.577 Y130.393 E128.08168
G1 X71.421 Y128.923 E128.45769
G1 X69.551 Y126.923 E128.7534
G1 X68.823 Y125.378 E128.93785
G1 X68.832 Y116.714 E129.87356
G1 X68.599 Y116.137 E129.94077
G1 X67.682 Y114.075 E130.18449
G1 X67.27 Y111.981 E130.41498
G1 X67.328 Y109.107 E130.72544
G1 X67.904 Y107.163 E130.94441
G1 X68.605 Y105.501 E131.13922
G1 X68.837 Y104.987 E131.20012
G1 X68.848 Y98.196 E131.93355
G1 X69.844 Y95.672 E132.2266
G1 X70.94 Y94.344 E132.41256
G0 F7200 X71.19 Y94.669
G1 F1800 X74.814 Y92.979 E132.84442
G1 X75.261 Y92.559 E132.91066
G1 X76.89 Y91.94 E133.09887
G1 X77.812 Y91.327 E133.21844
G1 X80.438 Y90.861 E133.50648
G1 X82.327 Y91.13 E133.71255
G1 X84.087 Y92.291 E133.94027
G1 X84.351 Y92.564 E133.98128
G1 X85.289 Y91.648 E134.12288
G1 X87.605 Y90.898 E134.38579
G1 X91.592 Y90.898 E134.81639
G1 X93.627 Y91.59 E135.04853
G1 X94.491 Y92.479 E135.18241
G1 X95.492 Y91.508 E135.33303
G1 X97.804 Y90.759 E135.5955
G1 X108.298 Y90.758 E136.72885
G1 X108.852 Y90.676 E136.78934
G1 X115.786 Y90.66 E137.53821
G1 X116.476 Y90.583 E137.61319
G1 X118.727 Y90.57 E137.8563
G1 X119.153 Y90.609 E137.9025
G1 X120.379 Y90.652 E138.03499
G1 X123.691 Y90.659 E138.39269
G1 X125.659 Y91.312 E138.61663
G1 X126.792 Y92.424 E138.78808
G1 X127.591 Y91.649 E138.9083
G1 X129.908 Y90.898 E139.17135
G1 X133.867 Y90.898 E139.59892
G1 X135.902 Y91.59 E139.83106
G1 X136.708 Y92.419 E139.95594
G1 X137.525 Y91.552 E140.0846
G1 X139.902 Y90.66 E140.35879
G1 X143.612 Y90.657 E140.75947
G1 X145.498 Y91.085 E140.96834
G1 X147.643 Y92.581 E141.25078
G1 X148.846 Y93.456 E141.41143
G1 X149.542 Y94.213 E141.52249
