;FLAVOR:UltiGCode
;TIME:12602
;MATERIAL:13625
;MATERIAL2:0
;NOZZLE_DIAMETER:0.4
;MINX:65.69
;MINY:88.565
;MINZ:0.27
;MAXX:155.74
;MAXY:134.557
;MAXZ:20.87
;TARGET_MACHINE.NAME:Ultimaker 2+
;Generated with Cura_SteamEngine 5.6.0
M82 ;absolute extrusion mode
G0 F3000 Y50 ;avoid prime blob
G92 E0
G92 E0
G10
;LAYER_COUNT:207
;LAYER:0
M107
G0 F7200 X70.008 Y92.999 Z0.27
;TYPE:SKIRT
G11
G1 F1800 X73.846 Y91.218 E0.45696
G1 X74.373 Y90.758 E0.53251
G1 X75.982 Y90.147 E0.71839
G1 X77.072 Y89.426 E0.85953
G1 X80.383 Y88.836 E1.22275
G1 X83.071 Y89.214 E1.51591
G1 X84.226 Y89.977 E1.66541
G1 X84.497 Y89.8 E1.70037
G1 X87.285 Y88.898 E2.01684
G1 X91.927 Y88.898 E2.51818
G1 X94.505 Y89.774 E2.81223
G1 X94.699 Y89.657 E2.8367
G1 X97.488 Y88.754 E3.15331
G1 X108.144 Y88.758 E4.30416
G1 X108.671 Y88.688 E4.36157
G1 X115.758 Y88.66 E5.12697
G1 X116.866 Y88.565 E5.24708
G1 X119.183 Y88.599 E5.49734
G1 X119.325 Y88.613 E5.51275
G1 X120.586 Y88.658 E5.64903
G1 X124.004 Y88.661 E6.01817
G1 X126.546 Y89.501 E6.30731
G1 X126.905 Y89.767 E6.35556
G1 X129.588 Y88.898 E6.66015
G1 X134.203 Y88.898 E7.15857
G1 X136.677 Y89.744 E7.44095
G1 X139.544 Y88.659 E7.77201
G1 X143.839 Y88.657 E8.23588
G1 X146.37 Y89.255 E8.51675
G1 X150.151 Y91.931 E9.01702
G1 X151.225 Y93.081 E9.18696
G1 X152.077 Y94.051 E9.3264
G1 X153.437 Y95.845 E9.56953
G1 X154.513 Y98.119 E9.84123
G1 X155.167 Y99.976 E10.05386
G1 X155.665 Y102.028 E10.28191
G1 X155.659 Y104.512 E10.55018
G1 X155.74 Y105.332 E10.63917
G1 X155.694 Y120.414 E12.26803
G1 X155.549 Y121.513 E12.38775
G1 X155.143 Y123.264 E12.58188
G1 X154.328 Y125.44 E12.83283
G1 X153.349 Y127.419 E13.07128
G1 X151.314 Y130.108 E13.43549
G1 X150.313 Y130.956 E13.57717
G1 X149.834 Y131.396 E13.64742
G1 X148.635 Y132.329 E13.81149
G1 X146.441 Y133.718 E14.09194
G1 X144.133 Y134.45 E14.35344
G1 X139.5 Y134.45 E14.8538
G1 X136.95 Y133.612 E15.14369
G1 X136.584 Y133.341 E15.19288
G1 X133.9 Y134.21 E15.49757
G1 X129.677 Y134.21 E15.95365
G1 X127.749 Y133.79 E16.16676
G1 X126.974 Y133.317 E16.26481
G1 X123.953 Y134.445 E16.61308
G1 X119.535 Y134.445 E17.09023
G1 X118.935 Y134.557 E17.15615
G1 X116.036 Y134.478 E17.46936
G1 X115.845 Y134.45 E17.4902
G1 X97.229 Y134.469 E19.50073
G1 X94.692 Y133.637 E19.78909
G1 X94.301 Y133.344 E19.84186
G1 X91.625 Y134.21 E20.14562
G1 X87.374 Y134.21 E20.60473
G1 X85.446 Y133.79 E20.81784
G1 X84.194 Y133.026 E20.97624
G1 X82.77 Y133.891 E21.15618
G1 X79.947 Y134.105 E21.46194
G1 X77.602 Y133.695 E21.71904
G1 X76.415 Y133.087 E21.86308
G1 X75.211 Y132.575 E22.00438
G1 X74.411 Y132.013 E22.10997
G1 X73.948 Y131.868 E22.16237
G1 X70.467 Y130.246 E22.57712
G1 X68.211 Y127.831 E22.93404
G1 X67.223 Y125.734 E23.1844
G1 X67.231 Y116.988 E24.12896
G1 X66.133 Y114.528 E24.41991
G1 X65.69 Y112.223 E24.6734
G1 X65.701 Y108.959 E25.02592
G1 X66.402 Y106.61 E25.29067
G1 X66.936 Y105.346 E25.43886
G1 X67.241 Y104.716 E25.51445
G1 X67.248 Y97.894 E26.25123
G1 X68.415 Y94.931 E26.59516
G1 X70.008 Y92.999 E26.8656
G0 F7200 X70.259 Y93.324
G1 F1800 X74.065 Y91.557 E27.31878
G1 X74.581 Y91.107 E27.39273
G1 X76.165 Y90.505 E27.57574
G1 X77.223 Y89.806 E27.71269
G1 X80.391 Y89.241 E28.06023
G1 X82.925 Y89.597 E28.33659
G1 X84.24 Y90.466 E28.50682
G1 X84.62 Y90.181 E28.55812
G1 X87.349 Y89.298 E28.8679
G1 X91.86 Y89.298 E29.35508
G1 X94.325 Y90.136 E29.63627
G1 X94.514 Y90.259 E29.66062
G1 X94.822 Y90.038 E29.70156
G1 X97.552 Y89.154 E30.01147
G1 X108.17 Y89.158 E31.15822
G1 X108.673 Y89.088 E31.21307
G1 X115.781 Y89.06 E31.98074
G1 X116.9 Y88.964 E32.10203
G1 X119.143 Y88.997 E32.3443
G1 X119.302 Y89.013 E32.36156
G1 X120.572 Y89.058 E32.49881
G1 X123.939 Y89.061 E32.86244
G1 X126.421 Y89.881 E33.14475
G1 X126.852 Y90.246 E33.20575
G1 X127.012 Y90.153 E33.22573
G1 X129.652 Y89.298 E33.52543
G1 X134.135 Y89.298 E34.0096
G1 X136.509 Y90.105 E34.2804
G1 X136.686 Y90.214 E34.30285
G1 X136.868 Y90.093 E34.32645
G1 X139.616 Y89.059 E34.64355
G1 X143.794 Y89.057 E35.09477
G1 X146.201 Y89.626 E35.36189
G1 X149.889 Y92.236 E35.84985
G1 X150.925 Y93.345 E36.01376
G1 X151.758 Y94.293 E36.15005
G1 X153.093 Y96.054 E36.38871
G1 X154.151 Y98.29 E36.65587
G1 X154.778 Y100.07 E36.85968
G1 X155.265 Y102.076 E37.08263
G1 X155.259 Y104.532 E37.34787
G1 X155.34 Y105.331 E37.43461
G1 X155.294 Y120.413 E39.06347
G1 X155.159 Y121.423 E39.17352
G1 X154.753 Y123.174 E39.36765
G1 X153.969 Y125.263 E39.60863
G1 X153.006 Y127.21 E39.84322
G1 X151.021 Y129.833 E40.19847
G1 X150.042 Y130.662 E40.33702
G1 X149.588 Y131.08 E40.40367
G1 X148.389 Y132.013 E40.56775
G1 X146.27 Y133.353 E40.83852
G1 X144.072 Y134.05 E41.08755
G1 X139.564 Y134.05 E41.57442
G1 X137.075 Y133.232 E41.85737
G1 X136.636 Y132.862 E41.91938
G1 X136.474 Y132.956 E41.93961
G1 X133.836 Y133.81 E42.23907
G1 X129.721 Y133.81 E42.68349
G1 X127.898 Y133.413 E42.88499
G1 X126.921 Y132.817 E43.00859
G1 X126.67 Y133.003 E43.04233
G1 X123.88 Y134.045 E43.36398
G1 X119.5 Y134.045 E43.83702
G1 X118.905 Y134.156 E43.90238
G1 X116.094 Y134.082 E44.20608
G1 X115.876 Y134.05 E44.22987
G1 X97.293 Y134.069 E46.23684
G1 X94.817 Y133.257 E46.51826
G1 X94.357 Y132.866 E46.58346
G1 X94.199 Y132.956 E46.6031
G1 X91.561 Y133.81 E46.90256
G1 X87.418 Y133.81 E47.35001
G1 X85.595 Y133.413 E47.5515
G1 X84.194 Y132.558 E47.72876
G1 X82.644 Y133.499 E47.9246
G1 X79.966 Y133.702 E48.21465
G1 X77.731 Y133.312 E48.45968
G1 X76.587 Y132.725 E48.59855
G1 X75.409 Y132.224 E48.7368
G1 X74.589 Y131.649 E48.84496
G1 X74.117 Y131.505 E48.89826
G1 X70.705 Y129.915 E49.3048
G1 X68.546 Y127.604 E49.64636
G1 X67.623 Y125.645 E49.88024
G1 X67.631 Y116.904 E50.82427
G1 X66.518 Y114.409 E51.11932
G1 X66.09 Y112.184 E51.36403
G1 X66.101 Y109.017 E51.70607
G1 X66.771 Y106.765 E51.95982
G1 X67.296 Y105.52 E52.10574
G1 X67.641 Y104.808 E52.19119
G1 X67.648 Y97.97 E52.9297
G1 X68.764 Y95.137 E53.25854
G1 X70.259 Y93.324 E53.51233
G0 F7200 X70.511 Y93.649
G1 F1800 X74.285 Y91.896 E53.96175
G1 X74.791 Y91.455 E54.03424
G1 X76.348 Y90.863 E54.21414
G1 X77.374 Y90.186 E54.3469
G1 X80.399 Y89.646 E54.67876
G1 X82.779 Y89.98 E54.93832
G1 X84.27 Y90.966 E55.13137
G1 X84.743 Y90.562 E55.19855
G1 X87.413 Y89.698 E55.50164
G1 X91.793 Y89.698 E55.97468
G1 X94.196 Y90.515 E56.24879
G1 X94.515 Y90.78 E56.29358
G1 X94.945 Y90.419 E56.35421
G1 X97.616 Y89.554 E56.65743
G1 X108.202 Y89.558 E57.80072
G1 X108.675 Y89.488 E57.85236
G1 X115.804 Y89.46 E58.6223
G1 X116.934 Y89.363 E58.74479
G1 X119.102 Y89.395 E58.97896
G1 X119.276 Y89.413 E58.99785
G1 X120.558 Y89.458 E59.13639
G1 X123.874 Y89.461 E59.49452
G1 X126.296 Y90.261 E59.76999
G1 X126.812 Y90.769 E59.8482
G1 X127.135 Y90.534 E59.89134
G1 X129.716 Y89.698 E60.18434
G1 X134.068 Y89.698 E60.65436
G1 X136.38 Y90.484 E60.91809
G1 X136.693 Y90.72 E60.96043
G1 X137.009 Y90.467 E61.00414
G1 X139.688 Y89.459 E61.31328
G1 X143.749 Y89.457 E61.75187
G1 X146.032 Y89.997 E62.00524
G1 X149.627 Y92.541 E62.48088
G1 X150.625 Y93.609 E62.63874
G1 X151.439 Y94.535 E62.7719
G1 X152.749 Y96.263 E63.00609
G1 X153.789 Y98.461 E63.2687
G1 X154.389 Y100.164 E63.46371
G1 X154.865 Y102.124 E63.68154
G1 X154.859 Y104.554 E63.94398
G1 X154.94 Y105.33 E64.02825
G1 X154.897 Y120.361 E65.6516
G1 X154.769 Y121.333 E65.75748
G1 X154.363 Y123.084 E65.95161
G1 X153.61 Y125.086 E66.18261
G1 X152.663 Y127.001 E66.41334
G1 X150.73 Y129.555 E66.75927
G1 X149.77 Y130.368 E66.89513
G1 X149.342 Y130.764 E66.9581
G1 X148.143 Y131.697 E67.12218
G1 X146.099 Y132.988 E67.38328
G1 X144.011 Y133.65 E67.61985
G1 X139.628 Y133.65 E68.09321
G1 X137.2 Y132.852 E68.36923
G1 X136.674 Y132.34 E68.44851
G1 X136.351 Y132.575 E68.49165
G1 X133.772 Y133.41 E68.78442
G1 X129.765 Y133.41 E69.21717
G1 X128.047 Y133.036 E69.40706
G1 X126.877 Y132.322 E69.55509
G1 X126.53 Y132.628 E69.60506
G1 X123.807 Y133.645 E69.91898
G1 X119.464 Y133.645 E70.38803
G1 X118.875 Y133.755 E70.45274
G1 X116.152 Y133.686 E70.74692
G1 X115.907 Y133.65 E70.77366
G1 X97.357 Y133.669 E72.77706
G1 X94.942 Y132.877 E73.05155
G1 X94.394 Y132.344 E73.13411
G1 X94.076 Y132.575 E73.17656
G1 X91.497 Y133.41 E73.46933
G1 X87.462 Y133.41 E73.90511
G1 X85.744 Y133.036 E74.095
G1 X84.194 Y132.09 E74.29111
G1 X82.518 Y133.107 E74.50284
G1 X79.985 Y133.299 E74.77719
G1 X77.859 Y132.928 E75.01027
G1 X76.753 Y132.361 E75.1445
G1 X75.604 Y131.872 E75.27936
G1 X74.766 Y131.285 E75.38986
G1 X74.286 Y131.142 E75.44395
G1 X70.943 Y129.584 E75.84228
G1 X68.881 Y127.377 E76.16848
G1 X68.023 Y125.556 E76.38588
G1 X68.031 Y116.82 E77.32937
G1 X66.902 Y114.29 E77.62858
G1 X66.49 Y112.146 E77.86437
G1 X66.501 Y109.075 E78.19604
G1 X67.14 Y106.92 E78.4388
G1 X67.656 Y105.695 E78.58236
G1 X68.041 Y104.901 E78.67766
G1 X68.048 Y98.046 E79.418
G1 X69.112 Y95.345 E79.73152
G1 X70.511 Y93.649 E79.96897
G0 F7200 X70.763 Y93.974
G1 F1800 X74.505 Y92.235 E80.41461
G1 X75.001 Y91.803 E80.48565
G1 X76.531 Y91.221 E80.66244
G1 X77.525 Y90.566 E80.791
G1 X80.407 Y90.051 E81.10719
G1 X82.633 Y90.363 E81.34995
G1 X84.318 Y91.478 E81.56816
G1 X84.866 Y90.943 E81.65087
G1 X87.477 Y90.098 E81.94726
G1 X91.726 Y90.098 E82.40615
G1 X94.067 Y90.894 E82.6732
G1 X94.506 Y91.345 E82.74117
G1 X95.068 Y90.8 E82.82572
G1 X97.68 Y89.954 E83.12224
G1 X108.234 Y89.958 E84.26208
G1 X108.734 Y89.884 E84.31666
G1 X115.827 Y89.86 E85.08271
G1 X116.968 Y89.762 E85.20639
G1 X119.06 Y89.793 E85.43236
G1 X119.248 Y89.813 E85.45277
G1 X120.544 Y89.858 E85.59283
G1 X123.809 Y89.861 E85.94545
G1 X126.083 Y90.612 E86.20409
G1 X126.793 Y91.31 E86.31161
G1 X127.258 Y90.915 E86.37751
G1 X129.78 Y90.098 E86.66382
G1 X134.001 Y90.098 E87.11969
G1 X136.251 Y90.863 E87.37635
G1 X136.698 Y91.26 E87.44092
G1 X137.15 Y90.841 E87.50748
G1 X139.76 Y89.859 E87.80865
G1 X143.704 Y89.857 E88.2346
G1 X145.865 Y90.368 E88.47443
G1 X149.362 Y92.843 E88.93712
G1 X150.325 Y93.873 E89.08941
G1 X151.12 Y94.777 E89.21943
G1 X152.405 Y96.472 E89.44915
G1 X153.427 Y98.632 E89.70722
G1 X154 Y100.258 E89.89341
G1 X154.465 Y102.172 E90.10614
G1 X154.459 Y104.578 E90.36599
G1 X154.54 Y105.329 E90.44756
G1 X154.497 Y120.36 E92.07092
G1 X154.379 Y121.243 E92.16713
G1 X153.988 Y122.944 E92.35563
G1 X153.251 Y124.909 E92.58229
G1 X152.32 Y126.792 E92.80915
G1 X150.439 Y129.277 E93.14574
G1 X149.511 Y130.063 E93.27709
G1 X149.096 Y130.448 E93.33822
G1 X147.897 Y131.381 E93.5023
G1 X145.93 Y132.622 E93.75348
G1 X143.95 Y133.25 E93.97782
G1 X139.692 Y133.25 E94.43769
G1 X137.413 Y132.501 E94.69677
G1 X136.692 Y131.8 E94.80538
G1 X136.228 Y132.194 E94.87112
G1 X133.708 Y133.01 E95.15719
G1 X129.809 Y133.01 E95.57828
G1 X128.196 Y132.659 E95.75656
G1 X126.809 Y131.812 E95.93208
G1 X126.39 Y132.253 E95.99778
G1 X123.734 Y133.245 E96.30398
G1 X119.429 Y133.245 E96.76892
G1 X118.845 Y133.354 E96.83308
G1 X116.21 Y133.29 E97.11775
G1 X115.937 Y133.25 E97.14754
G1 X97.421 Y133.269 E99.14727
G1 X95.155 Y132.526 E99.40482
G1 X94.413 Y131.805 E99.51656
G1 X93.953 Y132.194 E99.58162
G1 X91.433 Y133.01 E99.86769
G1 X87.506 Y133.01 E100.29181
G1 X85.893 Y132.659 E100.47009
G1 X84.48 Y131.797 E100.64885
G1 X84.25 Y131.587 E100.68249
G1 X82.392 Y132.715 E100.91724
G1 X80.004 Y132.896 E101.17588
G1 X77.987 Y132.544 E101.39701
G1 X76.919 Y131.997 E101.5266
G1 X75.798 Y131.52 E101.65817
G1 X74.941 Y130.919 E101.77122
G1 X74.455 Y130.779 E101.82584
G1 X71.181 Y129.253 E102.21596
G1 X69.216 Y127.15 E102.5268
G1 X68.423 Y125.467 E102.72773
G1 X68.431 Y116.688 E103.67586
G1 X68.196 Y116.209 E103.73348
G1 X67.287 Y114.171 E103.97449
G1 X66.89 Y112.107 E104.20149
G1 X66.901 Y109.136 E104.52236
G1 X67.524 Y107.034 E104.75913
G1 X68.016 Y105.87 E104.89561
G1 X68.441 Y104.994 E105.00077
G1 X68.448 Y98.122 E105.74295
G1 X69.46 Y95.553 E106.04115
G1 X70.763 Y93.974 E106.26225
G0 F7200 X71.013 Y94.299
G1 F1800 X74.725 Y92.574 E106.70432
G1 X75.211 Y92.151 E106.7739
G1 X76.714 Y91.579 E106.94758
G1 X77.676 Y90.946 E107.07195
G1 X80.416 Y90.456 E107.37257
G1 X82.486 Y90.746 E107.59831
G1 X84.367 Y91.99 E107.84187
G1 X85.078 Y91.295 E107.94925
G1 X87.541 Y90.498 E108.22883
G1 X91.659 Y90.498 E108.67357
G1 X93.847 Y91.242 E108.92317
G1 X94.497 Y91.91 E109.02383
G1 X95.278 Y91.153 E109.1413
G1 X97.744 Y90.354 E109.42125
G1 X108.266 Y90.358 E110.55763
G1 X108.793 Y90.28 E110.61517
G1 X115.85 Y90.26 E111.37733
G1 X117.002 Y90.161 E111.5022
G1 X119.054 Y90.193 E111.72384
G1 X119.223 Y90.213 E111.74222
G1 X120.53 Y90.258 E111.88346
G1 X123.744 Y90.261 E112.23057
G1 X125.87 Y90.963 E112.47238
G1 X126.791 Y91.868 E112.61183
G1 X127.381 Y91.296 E112.70058
G1 X129.844 Y90.498 E112.9802
G1 X133.934 Y90.498 E113.42192
G1 X136.122 Y91.242 E113.67151
G1 X136.702 Y91.839 E113.7614
G1 X137.291 Y91.215 E113.85407
G1 X139.832 Y90.259 E114.14728
G1 X143.659 Y90.257 E114.5606
G1 X145.696 Y90.739 E114.78667
G1 X149.1 Y93.148 E115.23705
G1 X150.025 Y94.137 E115.3833
G1 X150.801 Y95.019 E115.51017
G1 X152.061 Y96.681 E115.73542
G1 X153.065 Y98.803 E115.98896
G1 X153.611 Y100.352 E116.16634
G1 X154.065 Y102.22 E116.37395
G1 X154.059 Y104.604 E116.63143
G1 X154.14 Y105.328 E116.71011
G1 X154.1 Y120.308 E118.32795
G1 X153.989 Y121.153 E118.41999
G1 X153.598 Y122.854 E118.60849
G1 X152.892 Y124.732 E118.82518
G1 X151.977 Y126.583 E119.04818
G1 X150.146 Y129.002 E119.37583
G1 X149.239 Y129.77 E119.50418
G1 X148.85 Y130.132 E119.56157
G1 X147.651 Y131.065 E119.72565
G1 X145.761 Y132.256 E119.96692
G1 X143.889 Y132.85 E120.17903
G1 X139.756 Y132.85 E120.62539
G1 X137.626 Y132.15 E120.86754
G1 X136.693 Y131.243 E121.00807
G1 X136.105 Y131.813 E121.09651
G1 X133.644 Y132.61 E121.37589
G1 X129.853 Y132.61 E121.78532
G1 X128.345 Y132.282 E121.95199
G1 X126.995 Y131.458 E122.1228
G1 X126.783 Y131.259 E122.15421
G1 X126.165 Y131.91 E122.25115
G1 X123.661 Y132.845 E122.53982
G1 X119.393 Y132.845 E123.00076
G1 X118.815 Y132.953 E123.06427
G1 X116.268 Y132.894 E123.33942
G1 X115.968 Y132.85 E123.37216
G1 X97.485 Y132.869 E125.36833
G1 X95.368 Y132.175 E125.60894
G1 X94.413 Y131.247 E125.75275
G1 X93.83 Y131.813 E125.84051
G1 X91.369 Y132.61 E126.11989
G1 X87.55 Y132.61 E126.53234
G1 X86.042 Y132.282 E126.69901
G1 X84.688 Y131.456 E126.87031
G1 X84.309 Y131.083 E126.92774
G1 X82.266 Y132.323 E127.18584
G1 X80.023 Y132.493 E127.42878
G1 X78.115 Y132.16 E127.63796
G1 X77.085 Y131.633 E127.76291
G1 X75.992 Y131.168 E127.8912
G1 X75.113 Y130.551 E128.00718
G1 X74.624 Y130.416 E128.06197
G1 X71.419 Y128.922 E128.44387
G1 X69.551 Y126.923 E128.73935
G1 X68.823 Y125.378 E128.92381
G1 X68.831 Y116.596 E129.87226
G1 X68.561 Y116.046 E129.93843
G1 X67.671 Y114.052 E130.17426
G1 X67.29 Y112.069 E130.39235
G1 X67.301 Y109.197 E130.70252
G1 X67.908 Y107.148 E130.93332
G1 X68.376 Y106.045 E131.06272
G1 X68.841 Y105.087 E131.17773
G1 X68.848 Y98.198 E131.92175
G1 X69.809 Y95.759 E132.20487
G1 X71.013 Y94.299 E132.40925
G0 F7200 X71.265 Y94.624
G1 F1800 X74.945 Y92.913 E132.84755
G1 X75.421 Y92.499 E132.91568
G1 X76.897 Y91.937 E133.08625
G1 X77.827 Y91.326 E133.20643
G1 X80.425 Y90.861 E133.49147
G1 X82.339 Y91.129 E133.7002
G1 X84.081 Y92.281 E133.92575
G1 X84.351 Y92.564 E133.96799
G1 X85.289 Y91.648 E134.10959
G1 X87.605 Y90.898 E134.37251
G1 X91.592 Y90.898 E134.8031
G1 X93.627 Y91.59 E135.03524
G1 X94.489 Y92.476 E135.16874
G1 X95.49 Y91.505 E135.31936
G1 X97.808 Y90.754 E135.58251
G1 X108.298 Y90.758 E136.71543
G1 X108.852 Y90.676 E136.77592
G1 X115.862 Y90.66 E137.533
G1 X116.996 Y90.561 E137.65594
G1 X119.048 Y90.593 E137.87758
G1 X119.197 Y90.613 E137.89382
G1 X120.516 Y90.658 E138.03635
G1 X123.679 Y90.661 E138.37796
G1 X125.657 Y91.314 E138.60292
G1 X126.79 Y92.427 E138.77445
G1 X127.593 Y91.648 E138.89528
G1 X129.908 Y90.898 E139.15809
G1 X133.867 Y90.898 E139.58566
G1 X135.902 Y91.59 E139.8178
G1 X136.706 Y92.417 E139.94237
G1 X137.52 Y91.556 E140.07033
G1 X139.904 Y90.659 E140.34543
G1 X143.614 Y90.657 E140.74611
G1 X145.527 Y91.11 E140.95843
G1 X148.838 Y93.453 E141.39649
G1 X149.725 Y94.401 E141.5367
G1 X150.482 Y95.261 E141.66044
G1 X151.717 Y96.89 E141.88122
G1 X152.703 Y98.974 E142.13021
G1 X153.222 Y100.447 E142.29888
G1 X153.665 Y102.269 E142.50139
G1 X153.659 Y104.623 E142.75562
G1 X153.74 Y105.327 E142.83215
