;FLAVOR:UltiGCode
;TIME:765
;MATERIAL:500
;MATERIAL2:0
;NOZZLE_DIAMETER:0.4
;MINX:102.951
;MINY:92.975
;MINZ:0.27
;MAXX:130.025
;MAXY:120.049
;MAXZ:9.97
;TARGET_MACHINE.NAME:Ultimaker 2+
;Generated with Cura_SteamEngine 5.6.0
M82 ;absolute extrusion mode
G0 F3000 Y50 ;avoid prime blob
G92 E0
G92 E0
G10
;LAYER_COUNT:98
;LAYER:0
M107
G0 F7200 X104.893 Y96.076 Z0.27
;TYPE:SKIRT
G11
G1 F1800 X105.414 Y95.528 E0.08166
G1 X105.968 Y95.055 E0.16034
G1 X106.808 Y94.382 E0.27658
G1 X107.378 Y94.009 E0.35015
G1 X108.027 Y93.726 E0.42662
G1 X108.787 Y93.481 E0.51286
G1 X110.001 Y93.124 E0.64952
G1 X110.706 Y92.988 E0.72706
G1 X111.433 Y92.975 E0.80559
G1 X112.372 Y93.055 E0.90737
G1 X113.26 Y93.157 E1.00391
G1 X113.823 Y93.274 E1.06601
G1 X114.592 Y93.575 E1.1552
G1 X115.731 Y94.17 E1.29398
G1 X116.441 Y94.564 E1.38168
G1 X116.863 Y94.843 E1.43631
G1 X117.438 Y95.373 E1.52077
G1 X118.288 Y96.328 E1.65885
G1 X120.157 Y98.364 E1.95733
G1 X122.029 Y100.294 E2.24772
G1 X124.015 Y102.228 E2.5471
G1 X126.02 Y104.073 E2.84137
G1 X127.347 Y105.265 E3.03402
G1 X127.942 Y105.965 E3.13324
G1 X128.634 Y106.828 E3.25271
G1 X128.956 Y107.311 E3.3154
G1 X129.297 Y108.092 E3.40744
G1 X129.677 Y109.313 E3.54554
G1 X129.898 Y110.087 E3.63248
G1 X130.014 Y110.723 E3.7023
G1 X130.025 Y111.432 E3.77888
G1 X129.931 Y112.511 E3.89585
G1 X129.84 Y113.275 E3.97895
G1 X129.702 Y113.907 E4.04881
G1 X129.458 Y114.522 E4.12027
G1 X128.827 Y115.736 E4.26803
G1 X128.434 Y116.443 E4.35539
G1 X128.065 Y116.978 E4.42558
G1 X127.573 Y117.485 E4.50188
G1 X126.938 Y118.021 E4.59163
G1 X126.15 Y118.647 E4.70032
G1 X125.604 Y119 E4.77054
G1 X124.943 Y119.284 E4.84824
G1 X123.7 Y119.673 E4.9889
G1 X122.92 Y119.897 E5.07655
G1 X122.176 Y120.049 E5.15856
G1 X120.891 Y120.011 E5.2974
G1 X119.801 Y119.962 E5.41524
G1 X117.078 Y119.917 E5.70936
G1 X114.381 Y119.948 E6.00066
G1 X111.738 Y120.042 E6.28628
G1 X110.779 Y119.961 E6.39022
G1 X109.727 Y119.84 E6.50459
G1 X109.158 Y119.73 E6.56718
G1 X108.407 Y119.429 E6.65456
G1 X107.265 Y118.827 E6.79398
G1 X106.556 Y118.433 E6.88158
G1 X106.021 Y118.064 E6.95177
G1 X105.482 Y117.537 E7.03318
G1 X104.852 Y116.783 E7.1393
G1 X104.35 Y116.149 E7.22664
G1 X104.067 Y115.729 E7.28133
G1 X103.7 Y114.9 E7.37925
G1 X103.32 Y113.678 E7.51746
G1 X103.108 Y112.938 E7.60059
G1 X102.951 Y112.168 E7.68546
G1 X102.991 Y110.816 E7.83154
G1 X103.039 Y109.747 E7.94711
G1 X103.083 Y107.019 E8.24177
G1 X103.049 Y104.304 E8.53502
G1 X102.957 Y101.777 E8.80811
G1 X103.054 Y100.636 E8.93179
G1 X103.158 Y99.735 E9.02974
G1 X103.275 Y99.171 E9.09195
G1 X103.575 Y98.406 E9.18069
G1 X104.176 Y97.257 E9.32074
G1 X104.57 Y96.551 E9.40805
G1 X104.893 Y96.076 E9.47009
G0 F7200 X105.183 Y96.352
G1 F1800 X105.704 Y95.804 E9.55175
G1 X106.219 Y95.367 E9.6247
G1 X107.03 Y94.715 E9.73708
G1 X107.538 Y94.376 E9.80304
G1 X108.187 Y94.093 E9.87951
G1 X108.9 Y93.865 E9.96035
G1 X110.114 Y93.508 E10.09702
G1 X110.714 Y93.388 E10.1631
G1 X111.399 Y93.374 E10.2371
G1 X112.338 Y93.454 E10.33887
G1 X113.183 Y93.55 E10.43072
G1 X113.679 Y93.647 E10.4853
G1 X114.407 Y93.929 E10.56962
G1 X115.537 Y94.52 E10.70734
G1 X116.22 Y94.898 E10.79165
G1 X116.642 Y95.177 E10.84629
G1 X117.139 Y95.639 E10.91957
G1 X117.993 Y96.598 E11.05826
G1 X119.87 Y98.643 E11.35805
G1 X121.75 Y100.581 E11.64965
G1 X123.736 Y102.515 E11.94904
G1 X125.753 Y104.371 E12.24507
G1 X127.042 Y105.524 E12.43185
G1 X127.63 Y106.216 E12.52992
G1 X128.301 Y107.05 E12.64552
G1 X128.623 Y107.533 E12.70822
G1 X128.915 Y108.211 E12.78794
G1 X129.293 Y109.423 E12.92506
G1 X129.505 Y110.162 E13.00809
G1 X129.614 Y110.73 E13.07055
G1 X129.626 Y111.398 E13.14271
G1 X129.534 Y112.464 E13.25826
G1 X129.448 Y113.193 E13.33754
G1 X129.33 Y113.759 E13.39998
G1 X129.086 Y114.374 E13.47144
G1 X128.477 Y115.542 E13.6137
G1 X128.102 Y116.219 E13.69728
G1 X127.778 Y116.699 E13.75983
G1 X127.286 Y117.206 E13.83613
G1 X126.689 Y117.708 E13.92037
G1 X125.93 Y118.313 E14.0252
G1 X125.446 Y118.632 E14.0878
G1 X124.785 Y118.916 E14.1655
G1 X123.589 Y119.289 E14.3008
G1 X122.84 Y119.505 E14.38499
G1 X122.142 Y119.648 E14.46194
G1 X120.909 Y119.611 E14.59517
G1 X119.819 Y119.562 E14.71301
G1 X117.08 Y119.517 E15.00886
G1 X114.366 Y119.548 E15.30199
G1 X111.772 Y119.643 E15.58233
G1 X110.813 Y119.562 E15.68627
G1 X109.803 Y119.447 E15.79605
G1 X109.269 Y119.344 E15.85479
G1 X108.556 Y119.058 E15.93776
G1 X107.459 Y118.477 E16.07182
G1 X106.78 Y118.101 E16.15565
G1 X106.3 Y117.777 E16.21819
G1 X105.789 Y117.28 E16.29518
G1 X105.165 Y116.534 E16.40022
G1 X104.682 Y115.925 E16.48416
G1 X104.399 Y115.505 E16.53886
G1 X104.082 Y114.781 E16.62422
G1 X103.705 Y113.568 E16.7614
G1 X103.493 Y112.828 E16.84454
G1 X103.352 Y112.134 E16.92102
G1 X103.391 Y110.834 E17.06148
G1 X103.439 Y109.765 E17.17705
G1 X103.483 Y107.025 E17.47301
G1 X103.449 Y104.299 E17.76744
G1 X103.356 Y101.811 E18.03633
G1 X103.453 Y100.67 E18.16001
G1 X103.551 Y99.812 E18.25327
G1 X103.648 Y99.316 E18.30786
G1 X103.93 Y98.591 E18.39187
G1 X104.525 Y97.452 E18.53065
G1 X104.903 Y96.773 E18.61458
G1 X105.183 Y96.352 E18.66919
G0 F7200 X105.516 Y96.574
G1 F1800 X105.963 Y96.109 E18.73885
G1 X106.47 Y95.679 E18.81065
G1 X107.281 Y95.027 E18.92303
G1 X107.699 Y94.742 E18.97767
G1 X108.309 Y94.474 E19.04963
G1 X109.013 Y94.249 E19.12945
G1 X110.227 Y93.892 E19.26611
G1 X110.722 Y93.788 E19.32074
G1 X111.407 Y93.774 E19.39474
G1 X112.293 Y93.851 E19.49078
G1 X113.106 Y93.943 E19.57915
G1 X113.602 Y94.04 E19.63373
G1 X114.222 Y94.284 E19.70569
G1 X115.344 Y94.87 E19.8424
G1 X115.999 Y95.232 E19.92322
G1 X116.421 Y95.511 E19.97786
G1 X116.84 Y95.905 E20.03998
G1 X117.698 Y96.868 E20.17927
G1 X119.575 Y98.913 E20.47906
G1 X121.471 Y100.868 E20.77319
G1 X123.457 Y102.802 E21.07257
G1 X125.487 Y104.67 E21.37051
G1 X126.737 Y105.783 E21.55127
G1 X127.319 Y106.467 E21.64826
G1 X127.971 Y107.276 E21.76048
G1 X128.256 Y107.693 E21.81503
G1 X128.533 Y108.33 E21.89005
G1 X128.909 Y109.534 E22.02627
G1 X129.113 Y110.242 E22.10585
G1 X129.214 Y110.737 E22.16041
G1 X129.226 Y111.405 E22.23257
G1 X129.137 Y112.418 E22.34239
G1 X129.056 Y113.115 E22.41817
G1 X128.958 Y113.611 E22.47278
G1 X128.714 Y114.226 E22.54423
G1 X128.127 Y115.349 E22.68109
G1 X127.768 Y115.999 E22.76128
G1 X127.49 Y116.421 E22.81586
G1 X127.028 Y116.9 E22.88773
G1 X126.439 Y117.396 E22.9709
G1 X125.706 Y117.982 E23.07225
G1 X125.287 Y118.265 E23.12685
G1 X124.666 Y118.534 E23.19994
G1 X123.478 Y118.905 E23.33436
G1 X122.759 Y119.113 E23.4152
G1 X122.107 Y119.247 E23.48708
G1 X120.927 Y119.211 E23.61458
G1 X119.837 Y119.162 E23.73242
G1 X117.082 Y119.117 E24.03
G1 X114.351 Y119.148 E24.32497
G1 X111.806 Y119.244 E24.60002
G1 X110.847 Y119.163 E24.70396
G1 X109.879 Y119.054 E24.80917
G1 X109.383 Y118.958 E24.86373
G1 X108.743 Y118.704 E24.9381
G1 X107.652 Y118.127 E25.07139
G1 X107 Y117.767 E25.15182
G1 X106.578 Y117.489 E25.2064
G1 X106.096 Y117.023 E25.27881
G1 X105.478 Y116.285 E25.38277
G1 X105.014 Y115.701 E25.46332
G1 X104.731 Y115.281 E25.51802
G1 X104.464 Y114.662 E25.59083
G1 X104.089 Y113.458 E25.72702
G1 X103.885 Y112.748 E25.8068
G1 X103.753 Y112.1 E25.87822
G1 X103.791 Y110.852 E26.01307
G1 X103.839 Y109.783 E26.12864
G1 X103.883 Y107.031 E26.42589
G1 X103.849 Y104.294 E26.72151
G1 X103.756 Y101.796 E26.99148
G1 X103.85 Y100.715 E27.10867
G1 X103.944 Y99.889 E27.19845
G1 X104.041 Y99.393 E27.25304
G1 X104.285 Y98.776 E27.32469
G1 X104.875 Y97.646 E27.46237
G1 X105.236 Y96.995 E27.54276
G1 X105.516 Y96.574 E27.59737
G10
G0 F7200 X108.179 Y98.676
G11
G1 F1800 X108.956 Y98.036 E27.70608
G1 X109.375 Y97.692 E27.76463
G1 X111.148 Y97.154 E27.96474
G1 X111.683 Y97.207 E28.0228
G1 X111.93 Y97.232 E28.04961
G1 X112.155 Y97.254 E28.07403
G1 X112.686 Y97.307 E28.13166
G1 X114.324 Y98.179 E28.33207
G1 X114.966 Y98.958 E28.44109
G1 X115.308 Y99.373 E28.49917
G1 X115.846 Y101.149 E28.69959
G1 X115.793 Y101.683 E28.75754
G1 X115.693 Y102.686 E28.8664
G1 X114.821 Y104.324 E29.06681
G1 X114.044 Y104.964 E29.17553
G1 X113.625 Y105.308 E29.23408
G1 X111.852 Y105.846 E29.43419
G1 X111.317 Y105.793 E29.49225
G1 X111.07 Y105.768 E29.51906
G1 X110.845 Y105.746 E29.54348
G1 X110.314 Y105.693 E29.60111
G1 X108.676 Y104.821 E29.80152
G1 X108.036 Y104.044 E29.91024
G1 X107.692 Y103.625 E29.96879
G1 X107.154 Y101.851 E30.169
G1 X107.254 Y100.845 E30.27818
G1 X107.307 Y100.314 E30.33581
G1 X108.179 Y98.676 E30.53622
G0 F7200 X108.923 Y98.482
G1 F1800 X107.56 Y101.036 E30.84888
G1 X107.545 Y101.188 E30.86537
G1 X108.385 Y103.959 E31.17809
G1 X108.482 Y104.077 E31.19459
G1 X111.036 Y105.44 E31.50724
G1 X111.188 Y105.455 E31.52373
G1 X113.959 Y104.615 E31.83645
G1 X114.077 Y104.518 E31.85295
G1 X115.44 Y101.964 E32.1656
G1 X115.455 Y101.812 E32.1821
G1 X114.615 Y99.041 E32.49481
G1 X114.518 Y98.923 E32.51131
G1 X111.964 Y97.56 E32.82396
G1 X111.812 Y97.545 E32.84046
G1 X109.041 Y98.385 E33.15318
G1 X108.923 Y98.482 E33.16967
G10
G0 F7200 X110.787 Y102.251
G11
G1 F1800 X110.94 Y102.282 E33.18653
G1 X111.138 Y102.447 E33.21437
G1 X110.928 Y102.572 E33.24076
G1 X110.861 Y102.586 E33.24816
G1 X110.808 Y102.568 E33.2542
G1 X110.664 Y102.496 E33.27159
G1 X110.787 Y102.251 E33.3012
G10
G0 F7200 X111.148 Y107.154
G11
G1 F1800 X111.683 Y107.207 E33.35926
G1 X111.93 Y107.232 E33.38607
G1 X112.155 Y107.254 E33.41049
G1 X112.686 Y107.307 E33.46812
G1 X114.324 Y108.179 E33.66853
G1 X114.966 Y108.958 E33.77755
G1 X115.308 Y109.373 E33.83563
G1 X115.846 Y111.149 E34.03604
G1 X115.793 Y111.683 E34.094
G1 X115.693 Y112.686 E34.20286
G1 X114.821 Y114.324 E34.40327
G1 X114.044 Y114.964 E34.51199
G1 X113.625 Y115.308 E34.57054
G1 X111.852 Y115.846 E34.77064
G1 X111.317 Y115.793 E34.82871
G1 X111.07 Y115.768 E34.85552
G1 X110.845 Y115.746 E34.87993
G1 X110.314 Y115.693 E34.93757
G1 X108.676 Y114.821 E35.13798
G1 X108.036 Y114.044 E35.24669
G1 X107.692 Y113.625 E35.30524
G1 X107.154 Y111.851 E35.50545
G1 X107.254 Y110.845 E35.61464
G1 X107.307 Y110.314 E35.67227
G1 X108.179 Y108.676 E35.87268
G1 X108.956 Y108.036 E35.9814
G1 X109.375 Y107.692 E36.03995
G1 X111.148 Y107.154 E36.24005
G0 F7200 X111.812 Y107.545
G1 F1800 X109.041 Y108.385 E36.55277
G1 X108.923 Y108.482 E36.56926
G1 X107.56 Y111.036 E36.88192
G1 X107.545 Y111.188 E36.89841
G1 X108.385 Y113.959 E37.21113
G1 X108.482 Y114.077 E37.22763
G1 X111.036 Y115.44 E37.54028
G1 X111.188 Y115.455 E37.55678
G1 X113.959 Y114.615 E37.86949
G1 X114.077 Y114.518 E37.88599
G1 X115.44 Y111.964 E38.19864
G1 X115.455 Y111.812 E38.21514
G1 X114.615 Y109.041 E38.52786
G1 X114.518 Y108.923 E38.54435
G1 X111.964 Y107.56 E38.85701
G1 X111.812 Y107.545 E38.8735
G10
G0 F7200 X110.787 Y112.251
G11
G1 F1800 X110.94 Y112.282 E38.89036
G1 X111.138 Y112.447 E38.9182
G1 X110.928 Y112.572 E38.94459
G1 X110.861 Y112.586 E38.95198
G1 X110.808 Y112.568 E38.95803
G1 X110.664 Y112.496 E38.97542
G1 X110.787 Y112.251 E39.00502
G10
G0 F7200 X117.545 Y111.188
G11
G1 F1800 X118.385 Y113.959 E39.31774
G1 X118.482 Y114.077 E39.33424
G1 X121.036 Y115.44 E39.64689
G1 X121.188 Y115.455 E39.66339
G1 X123.959 Y114.615 E39.9761
G1 X124.077 Y114.518 E39.9926
G1 X125.44 Y111.964 E40.30525
G1 X125.455 Y111.812 E40.32175
G1 X124.615 Y109.041 E40.63447
G1 X124.518 Y108.923 E40.65096
G1 X121.964 Y107.56 E40.96362
G1 X121.812 Y107.545 E40.98011
G1 X119.041 Y108.385 E41.29283
G1 X118.923 Y108.482 E41.30933
G1 X117.56 Y111.036 E41.62198
G1 X117.545 Y111.188 E41.63847
G0 F7200 X117.254 Y110.845
G1 F1800 X117.307 Y110.314 E41.69611
G1 X118.179 Y108.676 E41.89652
G1 X118.956 Y108.036 E42.00524
G1 X119.375 Y107.692 E42.06378
G1 X121.148 Y107.154 E42.26389
G1 X121.683 Y107.207 E42.32195
G1 X121.93 Y107.232 E42.34877
G1 X122.155 Y107.254 E42.37318
G1 X122.686 Y107.307 E42.43081
G1 X124.324 Y108.179 E42.63122
G1 X124.966 Y108.958 E42.74025
G1 X125.308 Y109.373 E42.79832
G1 X125.846 Y111.149 E42.99874
G1 X125.793 Y111.683 E43.05669
G1 X125.693 Y112.686 E43.16556
G1 X124.821 Y114.324 E43.36597
G1 X124.044 Y114.964 E43.47468
G1 X123.625 Y115.308 E43.53323
G1 X121.852 Y115.846 E43.73334
G1 X121.317 Y115.793 E43.7914
G1 X121.07 Y115.768 E43.81821
G1 X120.845 Y115.746 E43.84263
G1 X120.314 Y115.693 E43.90026
G1 X118.676 Y114.821 E44.10067
G1 X118.036 Y114.044 E44.20939
G1 X117.692 Y113.625 E44.26794
G1 X117.154 Y111.851 E44.46815
G1 X117.254 Y110.845 E44.57733
G10
G0 F7200 X120.664 Y112.496
G11
G1 F1800 X120.787 Y112.251 E44.60694
G1 X120.94 Y112.282 E44.6238
G1 X121.138 Y112.447 E44.65163
G1 X120.928 Y112.572 E44.67803
G1 X120.861 Y112.586 E44.68542
G1 X120.808 Y112.568 E44.69146
G1 X120.664 Y112.496 E44.70885
G10
;MESH:Knobs.stl(2)
G0 F7200 X113.133 Y103.488
G0 X111.232 Y104.233
;TYPE:WALL-OUTER
G11
G1 F1553 X112.042 Y104.047 E44.82165
G1 F1800 X113.282 Y103.671 E44.97559
G1 X114.295 Y101.774 E45.23107
G1 F1850.8 X113.677 Y99.739 E45.47742
G1 F1904.2 X112.286 Y98.907 E45.66034
G1 F1850.8 X112.349 Y100.212 E45.81168
G1 F1800 X112.349 Y102.628 E46.0987
G1 X111.777 Y103.328 E46.20609
G1 F1556.8 X111.354 Y103.679 E46.28053
G1 F1360.9 X110.793 Y103.756 E46.36698
G1 F1357.9 X110.271 Y103.619 E46.44952
G1 X110.237 Y103.701 E46.4631
G1 X111.232 Y104.233 E46.63568
G0 F7200 X111.426 Y104.189
G10
G0 X111.352 Y103.943
G0 X109.614 Y103.201
G0 X110.148 Y103.602
G11
G1 F1322.8 X109.797 Y103.16 E46.72402
G1 F1603.8 X109.582 Y102.629 E46.79957
G1 F1705.7 X109.637 Y102.086 E46.86765
G1 F1800 X109.874 Y101.618 E46.92997
G1 X110.289 Y101.286 E46.9931
G1 X110.786 Y101.151 E47.05429
G1 X111.326 Y101.23 E47.11912
G1 F1815 X111.355 Y98.945 E47.38857
G1 F1861.2 X111.459 Y98.796 E47.40951
G1 F1845.6 X109.718 Y99.329 E47.62094
G1 F1800 X108.705 Y101.226 E47.87643
G1 X109.015 Y102.249 E48.00342
G1 F1714.7 X109.157 Y102.656 E48.05693
G1 F1615.9 X109.348 Y103.266 E48.14065
G1 F1322.8 X110.148 Y103.602 E48.27646
G0 F7200 X110.024 Y103.446
G0 X109.56 Y103.142
G0 X109.379 Y102.07
G0 X110.492 Y100.728
G0 X111.091 Y99.184
G0 X111.563 Y98.745
G1 F1920.8 X111.775 Y98.706 E48.3006
G1 F1954.8 X112.199 Y98.824 E48.34909
G10
G0 F7200 X112.599 Y99.43
G0 X112.568 Y101.846
G0 X109.711 Y101.456
G0 X109.311 Y101.846
;TYPE:WALL-INNER
G11
G1 F1800 X109.537 Y101.402 E48.40021
G1 X110.046 Y100.968 E48.46884
G1 X110.272 Y100.861 E48.4945
G1 X110.934 Y100.755 E48.56328
G1 X110.947 Y99.373 E48.70508
G1 X109.993 Y99.663 E48.80738
G1 X109.136 Y101.268 E48.99406
G1 X109.311 Y101.846 E49.05602
G10
G0 F7200 X109.379 Y102.653
G0 X111.924 Y103.499
G0 X112.708 Y103.188
G0 X112.149 Y103.56
G11
G1 F1505.1 X112.983 Y103.307 E49.16109
G1 F1640.7 X113.341 Y102.71 E49.23876
G1 F1800 X113.864 Y101.732 E49.35255
G1 X113.336 Y99.993 E49.53902
G1 X112.749 Y99.678 E49.60737
G1 X112.749 Y102.561 E49.90316
G1 F1653.3 X112.703 Y102.889 E49.93986
G1 F1515.9 X112.149 Y103.56 E50.04409
G0 F7200 X112.708 Y103.188
G0 X113.078 Y102.505
;TYPE:SKIN
G1 F1146.2 X113.511 Y101.696 E50.13733
G1 X113.077 Y100.266 E50.28918
G1 X113.078 Y102.505 E50.51669
G10
G0 F7200 X112.789 Y103.045
G0 X112.568 Y100.5
G0 X111.118 Y100.486
G0 X109.867 Y100.66
G11
G1 F1008.2 X110.58 Y100.438 E50.60185
G1 X110.586 Y99.854 E50.66846
G1 X110.237 Y99.96 E50.71005
G1 X109.867 Y100.66 E50.80034
G10
;MESH:Knobs.stl
G0 F7200 X109.569 Y100.5
G0 X109.211 Y101.319
G0 X109.369 Y102.734
G0 X109.096 Y104.174
G0 X110.817 Y108.06
G0 X111.563 Y108.745
;TYPE:WALL-OUTER
G11
G1 F1920.8 X111.775 Y108.706 E50.82448
G1 F1954.8 X112.199 Y108.824 E50.87297
G10
G0 F7200 X112.599 Y109.43
G0 X112.566 Y112.709
G0 X111.43 Y112.361
G0 X110.572 Y112.646
G0 X110.148 Y113.602
G11
G1 F1322.8 X109.797 Y113.16 E50.96132
G1 F1603.8 X109.582 Y112.629 E51.03686
G1 F1705.7 X109.637 Y112.086 E51.10494
G1 F1800 X109.874 Y111.618 E51.16726
G1 X110.289 Y111.286 E51.2304
G1 X110.786 Y111.151 E51.29158
G1 X111.326 Y111.23 E51.35642
G1 F1815 X111.355 Y108.945 E51.62586
G1 F1861.2 X111.459 Y108.796 E51.6468
G1 F1845.6 X109.718 Y109.329 E51.85824
G1 F1800 X108.705 Y111.226 E52.11372
G1 X109.015 Y112.249 E52.24071
G1 F1714.7 X109.157 Y112.656 E52.29423
G1 F1615.9 X109.348 Y113.266 E52.37795
G1 F1322.8 X110.148 Y113.602 E52.51376
G0 F7200 X110.024 Y113.446
G10
G0 X109.56 Y113.142
G0 X110.917 Y113.896
