;FLAVOR:UltiGCode
;TIME:954
;MATERIAL:998
;MATERIAL2:0
;NOZZLE_DIAMETER:0.4
;MINX:98.517
;MINY:98.516
;MINZ:0.27
;MAXX:124.484
;MAXY:124.475
;MAXZ:9.97
;TARGET_MACHINE.NAME:Ultimaker 2+
;Generated with Cura_SteamEngine 5.6.0
M82 ;absolute extrusion mode
G0 F3000 Y50 ;avoid prime blob
G92 E0
G92 E0
G10
;LAYER_COUNT:98
;LAYER:0
M107
G0 F7200 X101.95 Y102.685 Z0.27
;TYPE:SKIRT
G11
G1 F1800 X102.559 Y102.163 E0.08663
G1 X104.628 Y100.474 E0.37508
G1 X105.246 Y100.074 E0.45458
G1 X105.996 Y99.747 E0.54295
G1 X106.915 Y99.451 E0.64722
G1 X108.813 Y98.875 E0.86144
G1 X109.576 Y98.658 E0.94711
G1 X110.313 Y98.527 E1.02795
G1 X111.078 Y98.516 E1.11058
G1 X111.781 Y98.574 E1.18676
G1 X113.802 Y98.778 E1.40614
G1 X114.529 Y98.864 E1.4852
G1 X115.223 Y99.019 E1.562
G1 X115.934 Y99.302 E1.64465
G1 X116.553 Y99.621 E1.71986
G1 X118.535 Y100.678 E1.96245
G1 X119.204 Y101.05 E2.04512
G1 X119.761 Y101.431 E2.118
G1 X120.386 Y102.031 E2.21157
G1 X121.39 Y103.224 E2.37997
G1 X122.539 Y104.651 E2.57784
G1 X122.949 Y105.285 E2.65938
G1 X123.262 Y106.008 E2.74447
G1 X123.478 Y106.68 E2.8207
G1 X124.138 Y108.853 E3.06597
G1 X124.338 Y109.559 E3.14522
G1 X124.475 Y110.331 E3.2299
G1 X124.484 Y111.071 E3.30982
G1 X124.404 Y112.009 E3.41149
G1 X124.24 Y113.659 E3.59057
G1 X124.155 Y114.418 E3.67306
G1 X123.982 Y115.218 E3.76145
G1 X123.711 Y115.903 E3.84101
G1 X123.354 Y116.599 E3.92549
G1 X122.342 Y118.496 E4.1577
G1 X121.924 Y119.248 E4.25062
G1 X121.517 Y119.83 E4.32732
G1 X121.067 Y120.3 E4.39759
G1 X120.489 Y120.798 E4.47999
G1 X118.349 Y122.54 E4.77801
G1 X117.845 Y122.889 E4.84421
G1 X116.979 Y123.266 E4.94622
G1 X116.24 Y123.502 E5.03
G1 X114.143 Y124.137 E5.26663
G1 X113.465 Y124.331 E5.3428
G1 X112.727 Y124.463 E5.42377
G1 X111.982 Y124.475 E5.50424
G1 X110.77 Y124.383 E5.63551
G1 X108.551 Y124.149 E5.87649
G1 X107.882 Y124.012 E5.95024
G1 X107.044 Y123.686 E6.04735
G1 X105.409 Y122.835 E6.24642
G1 X105.302 Y122.77 E6.25994
G1 X104.424 Y122.3 E6.3675
G1 X103.751 Y121.923 E6.45081
G1 X103.222 Y121.559 E6.52016
G1 X102.673 Y121.037 E6.60197
G1 X102.199 Y120.484 E6.68063
G1 X101.006 Y119.032 E6.88359
G1 X100.437 Y118.318 E6.9822
G1 X100.086 Y117.779 E7.05166
G1 X99.736 Y116.982 E7.14567
G1 X99.498 Y116.237 E7.23014
G1 X98.85 Y114.097 E7.47162
G1 X98.649 Y113.386 E7.55142
G1 X98.533 Y112.75 E7.62124
G1 X98.517 Y111.936 E7.70917
G1 X98.601 Y110.962 E7.81475
G1 X98.767 Y109.27 E7.99837
G1 X98.85 Y108.546 E8.07707
G1 X98.996 Y107.849 E8.15398
G1 X99.267 Y107.145 E8.23545
G1 X99.614 Y106.461 E8.31828
G1 X100.672 Y104.478 E8.56102
G1 X101.09 Y103.733 E8.65328
G1 X101.499 Y103.153 E8.72993
G1 X101.95 Y102.685 E8.80013
G0 F7200 X102.238 Y102.963
G1 F1800 X102.812 Y102.473 E8.88163
G1 X104.845 Y100.81 E9.1653
G1 X105.463 Y100.41 E9.2448
G1 X106.119 Y100.128 E9.32192
G1 X107.031 Y99.834 E9.42541
G1 X108.922 Y99.26 E9.63884
G1 X109.685 Y99.043 E9.72451
G1 X110.32 Y98.927 E9.79422
G1 X111.045 Y98.915 E9.87253
G1 X111.741 Y98.972 E9.94795
G1 X113.756 Y99.175 E10.16668
G1 X114.445 Y99.255 E10.24159
G1 X115.076 Y99.391 E10.3113
G1 X115.751 Y99.658 E10.3897
G1 X116.365 Y99.974 E10.46428
G1 X118.341 Y101.028 E10.70614
G1 X118.981 Y101.382 E10.78513
G1 X119.485 Y101.72 E10.85067
G1 X120.08 Y102.289 E10.93959
G1 X121.078 Y103.475 E11.10699
G1 X122.227 Y104.902 E11.30486
G1 X122.582 Y105.445 E11.37492
G1 X122.881 Y106.131 E11.45574
G1 X123.095 Y106.796 E11.53119
G1 X123.753 Y108.962 E11.77567
G1 X123.953 Y109.668 E11.85492
G1 X124.075 Y110.336 E11.92826
G1 X124.084 Y111.076 E12.00818
G1 X124.006 Y111.969 E12.10499
G1 X123.842 Y113.614 E12.28353
G1 X123.757 Y114.373 E12.36602
G1 X123.61 Y115.071 E12.44306
G1 X123.339 Y115.756 E12.52262
G1 X123.001 Y116.411 E12.60222
G1 X121.992 Y118.302 E12.8337
G1 X121.594 Y119.021 E12.92246
G1 X121.228 Y119.553 E12.9922
G1 X120.778 Y120.023 E13.06247
G1 X120.236 Y120.488 E13.1396
G1 X118.121 Y122.211 E13.43422
G1 X117.646 Y122.54 E13.49662
G1 X116.857 Y122.885 E13.58963
G1 X116.124 Y123.119 E13.67273
G1 X114.033 Y123.752 E13.90868
G1 X113.355 Y123.946 E13.98484
G1 X112.72 Y124.063 E14.05457
G1 X112.012 Y124.076 E14.13105
G1 X110.812 Y123.985 E14.26102
G1 X108.627 Y123.756 E14.49829
G1 X108.026 Y123.639 E14.56442
G1 X107.229 Y123.331 E14.6567
G1 X105.594 Y122.48 E14.85577
G1 X105.491 Y122.417 E14.86881
G1 X104.619 Y121.951 E14.97559
G1 X103.975 Y121.592 E15.05522
G1 X103.498 Y121.269 E15.11743
G1 X102.949 Y120.747 E15.19925
G1 X102.508 Y120.23 E15.27264
G1 X101.318 Y118.782 E15.47506
G1 X100.77 Y118.097 E15.5698
G1 X100.452 Y117.617 E15.63198
G1 X100.117 Y116.86 E15.72138
G1 X99.881 Y116.121 E15.80517
G1 X99.235 Y113.987 E16.04597
G1 X99.043 Y113.314 E16.12155
G1 X98.927 Y112.678 E16.19137
G1 X98.916 Y111.97 E16.26785
G1 X98.999 Y111.001 E16.37288
G1 X99.165 Y109.315 E16.55585
G1 X99.242 Y108.628 E16.63051
G1 X99.388 Y107.931 E16.70742
G1 X99.624 Y107.326 E16.77756
G1 X99.967 Y106.649 E16.85952
G1 X101.021 Y104.673 E17.10139
G1 X101.419 Y103.961 E17.18948
G1 X101.787 Y103.431 E17.25917
G1 X102.238 Y102.963 E17.32936
G0 F7200 X102.526 Y103.241
G1 F1800 X103.066 Y102.782 E17.4059
G1 X105.065 Y101.144 E17.68502
G1 X105.622 Y100.777 E17.75706
G1 X106.242 Y100.509 E17.83001
G1 X107.147 Y100.217 E17.93271
G1 X109.032 Y99.645 E18.14545
G1 X109.761 Y99.436 E18.22736
G1 X110.328 Y99.327 E18.28972
G1 X111.013 Y99.314 E18.36371
G1 X111.701 Y99.37 E18.43826
G1 X113.71 Y99.572 E18.65632
G1 X114.365 Y99.647 E18.72753
G1 X114.93 Y99.763 E18.78982
G1 X115.568 Y100.014 E18.86386
G1 X116.177 Y100.327 E18.93781
G1 X118.147 Y101.378 E19.17896
G1 X118.787 Y101.732 E19.25795
G1 X119.209 Y102.01 E19.31252
G1 X119.774 Y102.547 E19.39671
G1 X120.767 Y103.726 E19.56319
G1 X121.894 Y105.124 E19.75712
G1 X122.216 Y105.606 E19.81973
G1 X122.5 Y106.254 E19.89614
G1 X122.712 Y106.912 E19.9708
G1 X123.368 Y109.072 E20.2146
G1 X123.56 Y109.744 E20.29008
G1 X123.675 Y110.342 E20.35585
G1 X123.685 Y111.041 E20.43135
G1 X123.608 Y111.929 E20.52761
G1 X123.444 Y113.569 E20.70561
G1 X123.359 Y114.328 E20.7881
G1 X123.238 Y114.925 E20.85388
G1 X122.983 Y115.573 E20.92909
G1 X122.648 Y116.223 E21.00807
G1 X121.642 Y118.109 E21.23892
G1 X121.262 Y118.797 E21.3238
G1 X120.939 Y119.276 E21.3862
G1 X120.489 Y119.746 E21.45647
G1 X119.983 Y120.178 E21.52833
G1 X117.893 Y121.882 E21.81956
G1 X117.448 Y122.19 E21.87801
G1 X116.736 Y122.504 E21.96205
G1 X116.008 Y122.736 E22.04457
G1 X113.922 Y123.368 E22.27997
G1 X113.279 Y123.553 E22.35224
G1 X112.712 Y123.663 E22.41461
G1 X112.042 Y123.677 E22.48699
G1 X110.853 Y123.587 E22.61577
G1 X108.703 Y123.363 E22.84923
G1 X108.102 Y123.246 E22.91535
G1 X107.414 Y122.976 E22.99517
G1 X105.779 Y122.125 E23.19424
G1 X105.687 Y122.068 E23.20593
G1 X104.813 Y121.601 E23.31295
G1 X104.196 Y121.258 E23.38919
G1 X103.774 Y120.979 E23.44383
G1 X103.225 Y120.457 E23.52564
G1 X102.817 Y119.976 E23.59376
G1 X101.63 Y118.532 E23.79564
G1 X101.101 Y117.872 E23.88699
G1 X100.817 Y117.454 E23.94157
G1 X100.498 Y116.738 E24.02622
G1 X100.264 Y116.005 E24.10932
G1 X99.619 Y113.877 E24.34947
G1 X99.436 Y113.239 E24.42116
G1 X99.327 Y112.671 E24.48362
G1 X99.315 Y112.004 E24.55567
G1 X99.397 Y111.04 E24.66015
G1 X99.563 Y109.36 E24.84248
G1 X99.64 Y108.673 E24.91714
G1 X99.761 Y108.076 E24.98293
G1 X99.997 Y107.471 E25.05306
G1 X100.32 Y106.837 E25.12991
G1 X101.37 Y104.868 E25.37091
G1 X101.75 Y104.186 E25.45522
G1 X102.075 Y103.709 E25.51756
G1 X102.526 Y103.241 E25.58775
G0 F7200 X102.814 Y103.519
G1 F1800 X103.32 Y103.091 E25.65933
G1 X105.288 Y101.476 E25.93428
G1 X105.782 Y101.144 E25.99856
G1 X106.365 Y100.89 E26.06724
G1 X107.263 Y100.6 E26.16916
G1 X109.143 Y100.029 E26.38136
G1 X109.841 Y99.828 E26.4598
G1 X110.337 Y99.727 E26.51447
G1 X110.981 Y99.713 E26.58404
G1 X111.661 Y99.768 E26.65772
G1 X113.665 Y99.969 E26.87524
G1 X114.289 Y100.04 E26.94306
G1 X114.785 Y100.136 E26.99763
G1 X115.385 Y100.37 E27.06718
G1 X115.989 Y100.68 E27.1405
G1 X117.954 Y101.728 E27.38102
G1 X118.567 Y102.066 E27.45662
G1 X118.989 Y102.344 E27.5112
G1 X119.468 Y102.805 E27.58299
G1 X120.456 Y103.977 E27.74854
G1 X121.564 Y105.35 E27.93909
G1 X121.85 Y105.768 E27.99379
G1 X122.119 Y106.377 E28.06569
G1 X122.329 Y107.028 E28.13957
G1 X122.983 Y109.182 E28.38269
G1 X123.175 Y109.854 E28.45817
G1 X123.275 Y110.349 E28.51271
G1 X123.286 Y111.007 E28.58378
G1 X123.21 Y111.889 E28.67939
G1 X123.046 Y113.524 E28.85686
G1 X122.961 Y114.283 E28.93934
G1 X122.865 Y114.78 E28.99401
G1 X122.627 Y115.39 E29.06473
G1 X122.295 Y116.035 E29.14307
G1 X121.292 Y117.916 E29.3733
G1 X120.928 Y118.577 E29.45479
G1 X120.65 Y118.999 E29.50937
G1 X120.2 Y119.469 E29.57964
G1 X119.73 Y119.868 E29.64623
G1 X117.665 Y121.553 E29.93407
G1 X117.249 Y121.841 E29.98872
G1 X116.615 Y122.123 E30.06366
G1 X115.892 Y122.353 E30.1456
G1 X113.811 Y122.984 E30.38045
G1 X113.198 Y123.161 E30.44936
G1 X112.702 Y123.263 E30.50405
G1 X112.072 Y123.278 E30.57211
G1 X110.894 Y123.189 E30.69969
G1 X108.744 Y122.965 E30.93315
G1 X108.247 Y122.873 E30.98774
G1 X107.599 Y122.621 E31.06283
G1 X105.964 Y121.77 E31.26189
G1 X105.883 Y121.719 E31.27223
G1 X105.007 Y121.251 E31.3795
G1 X104.417 Y120.924 E31.45235
G1 X103.995 Y120.645 E31.50698
G1 X103.53 Y120.198 E31.57664
G1 X103.126 Y119.722 E31.64407
G1 X101.942 Y118.282 E31.84541
G1 X101.432 Y117.647 E31.93337
G1 X101.148 Y117.229 E31.98795
G1 X100.879 Y116.616 E32.06025
G1 X100.647 Y115.889 E32.14267
G1 X100.003 Y113.766 E32.38227
G1 X99.828 Y113.159 E32.45049
G1 X99.727 Y112.664 E32.50505
G1 X99.715 Y111.997 E32.5771
G1 X99.795 Y111.079 E32.67662
G1 X99.961 Y109.405 E32.8583
G1 X100.038 Y108.718 E32.93296
G1 X100.134 Y108.221 E32.98763
G1 X100.37 Y107.616 E33.05776
G1 X100.673 Y107.025 E33.12949
G1 X101.72 Y105.062 E33.36977
G1 X102.083 Y104.408 E33.45055
G1 X102.363 Y103.987 E33.50515
G1 X102.814 Y103.519 E33.57535
G10
G0 F7200 X105.024 Y106.091
G11
G1 F1800 X105.678 Y105.555 E33.66667
G1 X105.868 Y105.711 E33.69322
G1 X103.556 Y110.039 E34.22316
G1 X103.32 Y109.968 E34.24978
G1 X103.404 Y109.132 E34.34052
G1 X105.024 Y106.091 E34.71264
G10
G0 F7200 X106.916 Y104.85
G11
G1 F1800 X106.8 Y104.633 E34.73922
G1 X107.453 Y104.096 E34.83052
G1 X110.747 Y103.095 E35.20234
G1 X111.592 Y103.178 E35.29404
G1 X111.617 Y103.424 E35.32074
G1 X106.916 Y104.85 E35.8513
G10
G0 F7200 X112.291 Y103.435
G0 X112.961 Y103.556
G11
G1 F1800 X113.032 Y103.32 E35.87791
G1 X113.868 Y103.404 E35.96866
G1 X116.91 Y105.025 E36.34093
G1 X117.446 Y105.677 E36.43208
G1 X117.29 Y105.867 E36.45863
G1 X112.961 Y103.556 E36.98861
G10
G0 F7200 X117.763 Y106.355
G0 X118.15 Y106.915
G11
G1 F1800 X118.367 Y106.799 E37.01519
G1 X118.904 Y107.452 E37.1065
G1 X119.905 Y110.748 E37.47852
G1 X119.822 Y111.592 E37.57011
G1 X119.576 Y111.616 E37.5968
G1 X118.15 Y106.915 E38.12736
G10
G0 F7200 X119.565 Y112.291
G0 X119.444 Y112.961
G11
G1 F1800 X119.68 Y113.032 E38.15397
G1 X119.596 Y113.868 E38.24472
G1 X117.976 Y116.909 E38.61684
G1 X117.322 Y117.445 E38.70816
G1 X117.132 Y117.289 E38.73471
G1 X119.444 Y112.961 E39.26465
G10
G0 F7200 X116.645 Y117.763
G0 X116.084 Y118.151
G11
G1 F1800 X116.2 Y118.367 E39.29113
G1 X115.547 Y118.904 E39.38244
G1 X112.253 Y119.905 E39.75425
G1 X111.409 Y119.822 E39.84584
G1 X111.384 Y119.577 E39.87244
G1 X116.084 Y118.151 E40.40289
G10
G0 F7200 X110.708 Y119.566
G0 X110.036 Y119.444
G11
G1 F1800 X109.965 Y119.68 E40.42951
G1 X109.129 Y119.596 E40.52025
G1 X106.091 Y117.977 E40.89204
G1 X105.555 Y117.324 E40.98328
G1 X105.711 Y117.134 E41.00983
G1 X110.036 Y119.444 E41.53938
G10
G0 F7200 X105.237 Y116.645
G0 X104.849 Y116.084
G11
G1 F1800 X104.633 Y116.2 E41.56585
G1 X104.096 Y115.547 E41.65716
G1 X103.095 Y112.252 E42.02908
G1 X103.178 Y111.408 E42.12067
G1 X103.424 Y111.384 E42.14737
G1 X104.849 Y116.084 E42.67779
G10
G0 F7200 X109.273 Y113.808
G11
G1 F1800 X109.198 Y113.582 E42.7035
G1 X109.177 Y113.389 E42.72447
G1 X109.206 Y113.147 E42.75079
G1 X109.266 Y112.969 E42.77108
G1 X109.462 Y112.679 E42.80888
G1 X109.615 Y112.548 E42.83063
G1 X109.929 Y112.402 E42.86803
G1 X110.123 Y112.367 E42.88932
G1 X110.339 Y112.376 E42.91267
G1 X110.523 Y112.424 E42.93321
G1 X111.534 Y113.04 E43.06107
G1 X111.534 Y113.463 E43.10675
G1 X110.878 Y114.133 E43.20802
G1 X110.66 Y114.279 E43.23636
G1 X110.459 Y114.357 E43.25964
G1 X110.225 Y114.393 E43.28521
G1 X110.027 Y114.38 E43.30664
G1 X109.82 Y114.319 E43.32995
G1 X109.509 Y114.127 E43.36942
G1 X109.383 Y113.992 E43.38937
G1 X109.273 Y113.808 E43.41252
G0 F7200 X109.637 Y113.638
G1 F1800 X109.592 Y113.501 E43.42809
G1 X109.58 Y113.387 E43.44047
G1 X109.598 Y113.238 E43.45668
G1 X109.629 Y113.146 E43.46717
G1 X109.763 Y112.948 E43.49299
G1 X109.833 Y112.888 E43.50294
G1 X110.055 Y112.785 E43.52937
G1 X110.151 Y112.768 E43.5399
G1 X110.278 Y112.773 E43.55363
G1 X110.366 Y112.796 E43.56345
G1 X111.134 Y113.264 E43.66058
G1 X111.134 Y113.3 E43.66447
G1 X110.621 Y113.823 E43.74359
G1 X110.473 Y113.922 E43.76282
G1 X110.352 Y113.969 E43.77684
G1 X110.208 Y113.991 E43.79258
G1 X110.096 Y113.984 E43.80469
G1 X109.987 Y113.952 E43.81696
G1 X109.764 Y113.814 E43.84529
G1 X109.705 Y113.751 E43.85461
G1 X109.637 Y113.638 E43.86885
G0 F7200 X110.004 Y113.473
G1 F1800 X109.985 Y113.415 E43.87544
G1 X109.982 Y113.391 E43.87805
G1 X109.989 Y113.33 E43.88469
G1 X109.991 Y113.324 E43.88537
G1 X110.059 Y113.224 E43.89843
G1 X110.175 Y113.17 E43.91225
G1 X110.213 Y113.171 E43.91635
G1 X110.518 Y113.357 E43.95494
G1 X110.367 Y113.511 E43.97823
G1 X110.285 Y113.566 E43.98889
G1 X110.252 Y113.579 E43.99272
G1 X110.186 Y113.589 E43.99993
G1 X110.168 Y113.588 E44.00188
G1 X110.152 Y113.583 E44.00369
G1 X110.022 Y113.503 E44.02018
G1 X110.004 Y113.473 E44.02395
G10
;MESH:KnobsV3.stl
G0 F7200 X109.395 Y115.57
G0 X110.253 Y115.497
;TYPE:WALL-OUTER
G11
G1 F1800 X109.813 Y115.465 E44.07636
G1 X109.415 Y115.352 E44.12552
G1 X108.847 Y115.015 E44.20398
G1 X108.493 Y114.647 E44.26464
G1 X108.275 Y114.284 E44.31494
G1 X108.124 Y113.85 E44.36953
G1 X108.073 Y113.358 E44.4283
G1 X108.131 Y112.885 E44.48491
G1 X108.277 Y112.47 E44.53717
G1 X108.62 Y111.959 E44.61029
G1 X109.033 Y111.606 E44.67483
G1 X109.643 Y111.331 E44.75432
G1 X110.033 Y111.265 E44.80132
G1 X110.528 Y111.287 E44.86018
G1 X110.926 Y111.391 E44.90905
G1 X111.216 Y111.552 E44.94845
G1 X111.21 Y106.456 E45.55386
G1 X111.458 Y106.278 E45.59013
G1 X112.457 Y106.278 E45.70881
G1 X112.634 Y106.569 E45.74927
G1 X112.635 Y113.905 E46.62079
G1 X111.589 Y114.978 E46.79881
G1 X111.166 Y115.262 E46.85933
G1 X110.749 Y115.425 E46.91252
G1 X110.253 Y115.497 E46.97207
G0 F7200 X110.054 Y115.483
G10
G0 X110.035 Y115.782
G0 X109.621 Y117.407
G0 X110.802 Y118.605
G11
G1 F1800 X116.031 Y117.017 E47.62129
G1 X118.604 Y112.197 E48.27038
G1 X117.017 Y106.969 E48.91945
G1 X112.197 Y104.396 E49.56855
G1 X106.969 Y105.983 E50.21762
G1 X104.396 Y110.803 E50.86672
G1 X105.983 Y116.031 E51.51579
G1 X110.802 Y118.605 E52.16483
G0 F7200 X110.993 Y118.547
G0 X110.844 Y118.174
;TYPE:WALL-INNER
G1 F1800 X115.756 Y116.683 E52.69151
G1 X118.173 Y112.155 E53.21813
G1 X116.683 Y107.244 E53.74468
G1 X113.539 Y105.566 E54.11032
G1 F1599.8 X112.872 Y105.325 E54.19127
G1 F1530.6 X112.582 Y105.073 E54.23689
G1 F1719.3 X112.155 Y104.827 E54.2896
G1 F1800 X107.244 Y106.317 E54.81615
G1 X104.827 Y110.845 E55.34277
G1 X106.318 Y115.756 E55.86935
G1 X110.844 Y118.174 E56.39583
G10
G0 F7200 X109.562 Y117.375
G0 X109.832 Y115.972
G0 X110.356 Y115.891
G11
G1 F1800 X109.83 Y115.872 E56.44983
G1 X109.243 Y115.72 E56.51205
G1 X108.641 Y115.357 E56.58417
G1 X108.23 Y114.958 E56.64294
G1 X107.918 Y114.464 E56.70289
G1 X107.741 Y113.966 E56.75712
G1 X107.675 Y113.445 E56.811
G1 X107.724 Y112.881 E56.86908
G1 X107.896 Y112.321 E56.92919
G1 X108.288 Y111.736 E57.00144
G1 X108.782 Y111.281 E57.07034
G1 X109.505 Y110.947 E57.15206
G1 X110.094 Y110.863 E57.2131
G1 X110.815 Y110.95 E57.28761
G1 X110.81 Y106.528 E57.74131
G1 X110.877 Y106.25 E57.77065
G1 X111.125 Y105.998 E57.80692
G1 F1780.4 X111.379 Y105.878 E57.83603
G1 F1742.3 X112.293 Y105.878 E57.93262
G1 F1404 X112.601 Y105.821 E57.9728
G1 F1187.9 X112.709 Y105.871 E57.99047
